; HEADER_BLOCK_START
; OrcaSlicer-compatible output generated by Pinch'n'Print
; total layer number: 100
; filament_diameter: 1.75
; filament_density: 1.24
; max_z_height: 20.00
; filament: 1
; filament_colour = #EC0006
; extruder_colour = #EC0006
; HEADER_BLOCK_END
; outer_wall_line_width = 0.42
; inner_wall_line_width = 0.45
; sparse_infill_line_width = 0.45
; top_surface_line_width = 0.42
; support_line_width = 0.35
M83
;LAYER_CHANGE
;Z:0.2
;HEIGHT:0.2
;TYPE:Skirt
G1 X-2.8 Y-2.8 Z0.2 F3000
G1 X22.8 Y-2.8 Z0.2 E0.85146 F3000
G1 X22.8 Y22.8 Z0.2 E0.85146 F3000
G1 X-2.8 Y22.8 Z0.2 E0.85146 F3000
G1 X-2.8 Y-2.8 Z0.2 E0.85146 F3000
G1 X-3.2 Y-3.2 Z0.2 F3000
G1 X23.2 Y-3.2 Z0.2 E0.87807 F3000
G1 X23.2 Y23.2 Z0.2 E0.87807 F3000
G1 X-3.2 Y23.2 Z0.2 E0.87807 F3000
G1 X-3.2 Y-3.2 Z0.2 E0.87807 F3000
G1 X-3.6 Y-3.6 Z0.2 F3000
G1 X23.6 Y-3.6 Z0.2 E0.90468 F3000
G1 X23.6 Y23.6 Z0.2 E0.90468 F3000
G1 X-3.6 Y23.6 Z0.2 E0.90468 F3000
G1 X-3.6 Y-3.6 Z0.2 E0.90468 F3000
G1 X-4 Y-4 Z0.2 F3000
G1 X24 Y-4 Z0.2 E0.93128 F3000
G1 X24 Y24 Z0.2 E0.93128 F3000
G1 X-4 Y24 Z0.2 E0.93128 F3000
G1 X-4 Y-4 Z0.2 E0.93128 F3000
G1 X-4.4 Y-4.4 Z0.2 F3000
G1 X24.4 Y-4.4 Z0.2 E0.95789 F3000
G1 X24.4 Y24.4 Z0.2 E0.95789 F3000
G1 X-4.4 Y24.4 Z0.2 E0.95789 F3000
G1 X-4.4 Y-4.4 Z0.2 E0.95789 F3000
G1 X-4.8 Y-4.8 Z0.2 F3000
G1 X24.8 Y-4.8 Z0.2 E0.98450 F3000
G1 X24.8 Y24.8 Z0.2 E0.98450 F3000
G1 X-4.8 Y24.8 Z0.2 E0.98450 F3000
G1 X-4.8 Y-4.8 Z0.2 E0.98450 F3000
G0 X-7.8 Y-7.8 F7200
;TYPE:Brim
G1 X-7.8 Y-7.8 Z0.2 F3000
G1 X27.8 Y-7.8 Z0.2 E1.18406 F3000
G1 X27.8 Y27.8 Z0.2 E1.18406 F3000
G1 X-7.8 Y27.8 Z0.2 E1.18406 F3000
G1 X-7.8 Y-7.8 Z0.2 E1.18406 F3000
G1 X-7.4 Y-7.4 Z0.2 F3000
G1 X27.4 Y-7.4 Z0.2 E1.15745 F3000
G1 X27.4 Y27.4 Z0.2 E1.15745 F3000
G1 X-7.4 Y27.4 Z0.2 E1.15745 F3000
G1 X-7.4 Y-7.4 Z0.2 E1.15745 F3000
G1 X-7 Y-7 Z0.2 F3000
G1 X27 Y-7 Z0.2 E1.13085 F3000
G1 X27 Y27 Z0.2 E1.13084 F3000
G1 X-7 Y27 Z0.2 E1.13084 F3000
G1 X-7 Y-7 Z0.2 E1.13084 F3000
G1 X-6.6 Y-6.6 Z0.2 F3000
G1 X26.6 Y-6.6 Z0.2 E1.10424 F3000
G1 X26.6 Y26.6 Z0.2 E1.10424 F3000
G1 X-6.6 Y26.6 Z0.2 E1.10424 F3000
G1 X-6.6 Y-6.6 Z0.2 E1.10424 F3000
G1 X-6.2 Y-6.2 Z0.2 F3000
G1 X26.2 Y-6.2 Z0.2 E1.07763 F3000
G1 X26.2 Y26.2 Z0.2 E1.07763 F3000
G1 X-6.2 Y26.2 Z0.2 E1.07763 F3000
G1 X-6.2 Y-6.2 Z0.2 E1.07763 F3000
; path-optimization layer 0 regions=1 entities=3
G1 X-5.8 Y-5.8 Z0.2 F3000
G1 X25.8 Y-5.8 Z0.2 E1.05102 F3000
G1 X25.8 Y25.8 Z0.2 E1.05102 F3000
G1 X-5.8 Y25.8 Z0.2 E1.05102 F3000
G1 X-5.8 Y-5.8 Z0.2 E1.05102 F3000
G1 X-5.4 Y-5.4 Z0.2 F3000
G1 X25.4 Y-5.4 Z0.2 E1.02441 F3000
G1 X25.4 Y25.4 Z0.2 E1.02441 F3000
G1 X-5.4 Y25.4 Z0.2 E1.02441 F3000
G1 X-5.4 Y-5.4 Z0.2 E1.02441 F3000
G1 X-5 Y-5 Z0.2 F3000
G1 X25 Y-5 Z0.2 E0.99780 F3000
G1 X25 Y25 Z0.2 E0.99780 F3000
G1 X-5 Y25 Z0.2 E0.99780 F3000
G1 X-5 Y-5 Z0.2 E0.99780 F3000
G1 X-4.6 Y-4.6 Z0.2 F3000
G1 X24.6 Y-4.6 Z0.2 E0.97120 F3000
G1 X24.6 Y24.6 Z0.2 E0.97120 F3000
G1 X-4.6 Y24.6 Z0.2 E0.97120 F3000
G1 X-4.6 Y-4.6 Z0.2 E0.97120 F3000
G1 X-4.2 Y-4.2 Z0.2 F3000
G1 X24.2 Y-4.2 Z0.2 E0.94459 F3000
G1 X24.2 Y24.2 Z0.2 E0.94459 F3000
G1 X-4.2 Y24.2 Z0.2 E0.94459 F3000
G1 X-4.2 Y-4.2 Z0.2 E0.94459 F3000
G1 X-3.8 Y-3.8 Z0.2 F3000
G1 X23.8 Y-3.8 Z0.2 E0.91798 F3000
G1 X23.8 Y23.8 Z0.2 E0.91798 F3000
G1 X-3.8 Y23.8 Z0.2 E0.91798 F3000
G1 X-3.8 Y-3.8 Z0.2 E0.91798 F3000
G1 X-3.4 Y-3.4 Z0.2 F3000
G1 X23.4 Y-3.4 Z0.2 E0.89137 F3000
G1 X23.4 Y23.4 Z0.2 E0.89137 F3000
G1 X-3.4 Y23.4 Z0.2 E0.89137 F3000
G1 X-3.4 Y-3.4 Z0.2 E0.89137 F3000
G1 X-3 Y-3 Z0.2 F3000
G1 X23 Y-3 Z0.2 E0.86476 F3000
G1 X23 Y23 Z0.2 E0.86476 F3000
G1 X-3 Y23 Z0.2 E0.86476 F3000
G1 X-3 Y-3 Z0.2 E0.86476 F3000
G1 X-2.6 Y-2.6 Z0.2 F3000
G1 X22.6 Y-2.6 Z0.2 E0.83816 F3000
G1 X22.6 Y22.6 Z0.2 E0.83816 F3000
G1 X-2.6 Y22.6 Z0.2 E0.83816 F3000
G1 X-2.6 Y-2.6 Z0.2 E0.83816 F3000
G1 X-2.2 Y-2.2 Z0.2 F3000
G1 X22.2 Y-2.2 Z0.2 E0.81155 F3000
G1 X22.2 Y22.2 Z0.2 E0.81155 F3000
G1 X-2.2 Y22.2 Z0.2 E0.81155 F3000
G1 X-2.2 Y-2.2 Z0.2 E0.81155 F3000
G1 X-1.8 Y-1.8 Z0.2 F3000
G1 X21.8 Y-1.8 Z0.2 E0.78494 F3000
G1 X21.8 Y21.8 Z0.2 E0.78494 F3000
G1 X-1.8 Y21.8 Z0.2 E0.78494 F3000
G1 X-1.8 Y-1.8 Z0.2 E0.78494 F3000
G1 X-1.4 Y-1.4 Z0.2 F3000
G1 X21.4 Y-1.4 Z0.2 E0.75833 F3000
G1 X21.4 Y21.4 Z0.2 E0.75833 F3000
G1 X-1.4 Y21.4 Z0.2 E0.75833 F3000
G1 X-1.4 Y-1.4 Z0.2 E0.75833 F3000
G1 X-1 Y-1 Z0.2 F3000
G1 X21 Y-1 Z0.2 E0.73172 F3000
G1 X21 Y21 Z0.2 E0.73172 F3000
G1 X-1 Y21 Z0.2 E0.73172 F3000
G1 X-1 Y-1 Z0.2 E0.73172 F3000
G1 X-0.6 Y-0.6 Z0.2 F3000
G1 X20.6 Y-0.6 Z0.2 E0.70512 F3000
G1 X20.6 Y20.6 Z0.2 E0.70512 F3000
G1 X-0.6 Y20.6 Z0.2 E0.70512 F3000
G1 X-0.6 Y-0.6 Z0.2 E0.70512 F3000
G1 X-0.2 Y-0.2 Z0.2 F3000
G1 X20.2 Y-0.2 Z0.2 E0.67850 F3000
G1 X20.2 Y20.2 Z0.2 E0.67850 F3000
G1 X-0.2 Y20.2 Z0.2 E0.67850 F3000
G1 X-0.2 Y-0.2 Z0.2 E0.67850 F3000
;TYPE:Outer wall
G1 X0.2 Y0.2 Z0.2 F2160
G1 X19.8 Y0.2 Z0.2 E0.65190 F2160
G1 X19.8 Y19.8 Z0.2 E0.65190 F2160
G1 X0.2 Y19.8 Z0.2 E0.65190 F2160
G1 X0.2 Y0.2 Z0.2 E0.65190 F2160
;TYPE:Inner wall
G1 X19.4 Y0.6 Z0.2 F3240
G1 X19.4 Y19.4 Z0.2 E0.62529 F3240
G1 X0.6 Y19.4 Z0.2 E0.62529 F3240
G1 X0.6 Y0.6 Z0.2 E0.62529 F3240
G1 X19.4 Y0.6 Z0.2 E0.62529 F3240
G1 X19 Y1 Z0.2 F3240
G1 X19 Y19 Z0.2 E0.59868 F3240
G1 X1 Y19 Z0.2 E0.59868 F3240
G1 X1 Y1 Z0.2 E0.59868 F3240
G1 X19 Y1 Z0.2 E0.59868 F3240
;TYPE:Bottom surface
G1 X1.4 Y3.4 Z0.2 F6000
G1 X18.6 Y3.4 Z0.2 E0.57207 F6000
G1 X1.4 Y5.4 Z0.2 F6000
G1 X18.6 Y5.4 Z0.2 E0.57207 F6000
G1 X1.4 Y7.4 Z0.2 F6000
G1 X18.6 Y7.4 Z0.2 E0.57207 F6000
G1 X1.4 Y9.4 Z0.2 F6000
G1 X18.6 Y9.4 Z0.2 E0.57207 F6000
G1 X1.4 Y11.4 Z0.2 F6000
G1 X18.6 Y11.4 Z0.2 E0.57207 F6000
G1 X1.4 Y13.4 Z0.2 F6000
G1 X18.6 Y13.4 Z0.2 E0.57207 F6000
G1 X1.4 Y15.4 Z0.2 F6000
G1 X18.6 Y15.4 Z0.2 E0.57207 F6000
G1 X1.4 Y17.4 Z0.2 F6000
G1 X18.6 Y17.4 Z0.2 E0.57207 F6000
;LAYER_CHANGE
;Z:0.4
;HEIGHT:0.2
;TYPE:Outer wall
G1 X0.2 Y0.2 Z0.4 F2160
G1 X19.8 Y0.2 Z0.4 E0.65190 F2160
G1 X19.8 Y19.8 Z0.4 E0.65190 F2160
G1 X0.2 Y19.8 Z0.4 E0.65190 F2160
G1 X0.2 Y0.2 Z0.4 E0.65190 F2160
;TYPE:Inner wall
G1 X19.4 Y0.6 Z0.4 F3240
G1 X19.4 Y19.4 Z0.4 E0.62529 F3240
G1 X0.6 Y19.4 Z0.4 E0.62529 F3240
G1 X0.6 Y0.6 Z0.4 E0.62529 F3240
G1 X19.4 Y0.6 Z0.4 E0.62529 F3240
G1 X19 Y1 Z0.4 F3240
G1 X19 Y19 Z0.4 E0.59868 F3240
G1 X1 Y19 Z0.4 E0.59868 F3240
G1 X1 Y1 Z0.4 E0.59868 F3240
G1 X19 Y1 Z0.4 E0.59868 F3240
;TYPE:Internal solid infill
G1 X2.6 Y1.4 Z0.4 F6000
G1 X2.6 Y18.6 Z0.4 E0.57207 F6000
G1 X4.6 Y1.4 Z0.4 F6000
G1 X4.6 Y18.6 Z0.4 E0.57207 F6000
G1 X6.6 Y1.4 Z0.4 F6000
G1 X6.6 Y18.6 Z0.4 E0.57207 F6000
G1 X8.6 Y1.4 Z0.4 F6000
G1 X8.6 Y18.6 Z0.4 E0.57207 F6000
G1 X10.6 Y1.4 Z0.4 F6000
G1 X10.6 Y18.6 Z0.4 E0.57207 F6000
G1 X12.6 Y1.4 Z0.4 F6000
G1 X12.6 Y18.6 Z0.4 E0.57207 F6000
G1 X14.6 Y1.4 Z0.4 F6000
G1 X14.6 Y18.6 Z0.4 E0.57207 F6000
G1 X16.6 Y1.4 Z0.4 F6000
G1 X16.6 Y18.6 Z0.4 E0.57207 F6000
G1 E-0.80000 F25
; path-optimization layer 1 regions=1 entities=3
G1 E0.80000 F25
;LAYER_CHANGE
;Z:0.6
;HEIGHT:0.2
;TYPE:Outer wall
G1 X0.2 Y0.2 Z0.6 F2160
G1 X19.8 Y0.2 Z0.6 E0.65190 F2160
G1 X19.8 Y19.8 Z0.6 E0.65190 F2160
G1 X0.2 Y19.8 Z0.6 E0.65190 F2160
G1 X0.2 Y0.2 Z0.6 E0.65190 F2160
;TYPE:Inner wall
G1 X19.4 Y0.6 Z0.6 F3240
G1 X19.4 Y19.4 Z0.6 E0.62529 F3240
G1 X0.6 Y19.4 Z0.6 E0.62529 F3240
G1 X0.6 Y0.6 Z0.6 E0.62529 F3240
G1 X19.4 Y0.6 Z0.6 E0.62529 F3240
G1 X19 Y1 Z0.6 F3240
G1 X19 Y19 Z0.6 E0.59869 F3240
G1 X1 Y19 Z0.6 E0.59869 F3240
G1 X1 Y1 Z0.6 E0.59869 F3240
G1 X19 Y1 Z0.6 E0.59869 F3240
;TYPE:Internal solid infill
G1 X1.4 Y3.4 Z0.6 F6000
G1 X18.6 Y3.4 Z0.6 E0.57207 F6000
G1 X1.4 Y5.4 Z0.6 F6000
G1 X18.6 Y5.4 Z0.6 E0.57207 F6000
G1 X1.4 Y7.4 Z0.6 F6000
G1 X18.6 Y7.4 Z0.6 E0.57207 F6000
G1 X1.4 Y9.4 Z0.6 F6000
G1 X18.6 Y9.4 Z0.6 E0.57207 F6000
G1 X1.4 Y11.4 Z0.6 F6000
G1 X18.6 Y11.4 Z0.6 E0.57207 F6000
G1 X1.4 Y13.4 Z0.6 F6000
G1 X18.6 Y13.4 Z0.6 E0.57207 F6000
G1 X1.4 Y15.4 Z0.6 F6000
G1 X18.6 Y15.4 Z0.6 E0.57207 F6000
G1 X1.4 Y17.4 Z0.6 F6000
G1 X18.6 Y17.4 Z0.6 E0.57207 F6000
G1 E-0.80000 F25
; path-optimization layer 2 regions=1 entities=3
G1 E0.80000 F25
;LAYER_CHANGE
;Z:0.8
;HEIGHT:0.2
;TYPE:Outer wall
G1 X0.2 Y0.2 Z0.8 F2160
G1 X19.8 Y0.2 Z0.8 E0.65190 F2160
G1 X19.8 Y19.8 Z0.8 E0.65190 F2160
G1 X0.2 Y19.8 Z0.8 E0.65190 F2160
G1 X0.2 Y0.2 Z0.8 E0.65190 F2160
;TYPE:Inner wall
G1 X19.4 Y0.6 Z0.8 F3240
G1 X19.4 Y19.4 Z0.8 E0.62529 F3240
G1 X0.6 Y19.4 Z0.8 E0.62529 F3240
G1 X0.6 Y0.6 Z0.8 E0.62529 F3240
G1 X19.4 Y0.6 Z0.8 E0.62529 F3240
G1 X19 Y1 Z0.8 F3240
G1 X19 Y19 Z0.8 E0.59868 F3240
G1 X1 Y19 Z0.8 E0.59868 F3240
G1 X1 Y1 Z0.8 E0.59868 F3240
G1 X19 Y1 Z0.8 E0.59868 F3240
;TYPE:Sparse infill
G1 X2.6 Y1.4 Z0.8 F6000
G1 X2.6 Y18.6 Z0.8 E0.57207 F6000
G1 X4.6 Y1.4 Z0.8 F6000
G1 X4.6 Y18.6 Z0.8 E0.57207 F6000
G1 X6.6 Y1.4 Z0.8 F6000
G1 X6.6 Y18.6 Z0.8 E0.57207 F6000
G1 X8.6 Y1.4 Z0.8 F6000
G1 X8.6 Y18.6 Z0.8 E0.57207 F6000
G1 X10.6 Y1.4 Z0.8 F6000
G1 X10.6 Y18.6 Z0.8 E0.57207 F6000
G1 X12.6 Y1.4 Z0.8 F6000
G1 X12.6 Y18.6 Z0.8 E0.57207 F6000
G1 X14.6 Y1.4 Z0.8 F6000
G1 X14.6 Y18.6 Z0.8 E0.57207 F6000
G1 X16.6 Y1.4 Z0.8 F6000
G1 X16.6 Y18.6 Z0.8 E0.57207 F6000
G1 E-0.80000 F25
; path-optimization layer 3 regions=1 entities=3
G1 E0.80000 F25
;LAYER_CHANGE
;Z:1
;HEIGHT:0.2
;TYPE:Outer wall
G1 X0.2 Y0.2 Z1 F2160
G1 X19.8 Y0.2 Z1 E0.65190 F2160
G1 X19.8 Y19.8 Z1 E0.65190 F2160
G1 X0.2 Y19.8 Z1 E0.65190 F2160
G1 X0.2 Y0.2 Z1 E0.65190 F2160
;TYPE:Inner wall
G1 X19.4 Y0.6 Z1 F3240
G1 X19.4 Y19.4 Z1 E0.62529 F3240
G1 X0.6 Y19.4 Z1 E0.62529 F3240
G1 X0.6 Y0.6 Z1 E0.62529 F3240
G1 X19.4 Y0.6 Z1 E0.62529 F3240
G1 X19 Y1 Z1 F3240
G1 X19 Y19 Z1 E0.59868 F3240
G1 X1 Y19 Z1 E0.59868 F3240
G1 X1 Y1 Z1 E0.59868 F3240
G1 X19 Y1 Z1 E0.59868 F3240
;TYPE:Sparse infill
G1 X1.4 Y3.4 Z1 F6000
G1 X18.6 Y3.4 Z1 E0.57207 F6000
G1 X1.4 Y5.4 Z1 F6000
G1 X18.6 Y5.4 Z1 E0.57207 F6000
G1 X1.4 Y7.4 Z1 F6000
G1 X18.6 Y7.4 Z1 E0.57207 F6000
G1 X1.4 Y9.4 Z1 F6000
G1 X18.6 Y9.4 Z1 E0.57207 F6000
G1 X1.4 Y11.4 Z1 F6000
G1 X18.6 Y11.4 Z1 E0.57207 F6000
G1 X1.4 Y13.4 Z1 F6000
G1 X18.6 Y13.4 Z1 E0.57207 F6000
G1 X1.4 Y15.4 Z1 F6000
G1 X18.6 Y15.4 Z1 E0.57207 F6000
G1 X1.4 Y17.4 Z1 F6000
G1 X18.6 Y17.4 Z1 E0.57207 F6000
G1 E-0.80000 F25
; path-optimization layer 4 regions=1 entities=3
G1 E0.80000 F25
;LAYER_CHANGE
;Z:1.2
;HEIGHT:0.2
;TYPE:Outer wall
G1 X0.2 Y0.2 Z1.2 F2160
G1 X19.8 Y0.2 Z1.2 E0.65190 F2160
G1 X19.8 Y19.8 Z1.2 E0.65190 F2160
G1 X0.2 Y19.8 Z1.2 E0.65190 F2160
G1 X0.2 Y0.2 Z1.2 E0.65190 F2160
;TYPE:Inner wall
G1 X19.4 Y0.6 Z1.2 F3240
G1 X19.4 Y19.4 Z1.2 E0.62529 F3240
G1 X0.6 Y19.4 Z1.2 E0.62529 F3240
G1 X0.6 Y0.6 Z1.2 E0.62529 F3240
G1 X19.4 Y0.6 Z1.2 E0.62529 F3240
G1 X19 Y1 Z1.2 F3240
G1 X19 Y19 Z1.2 E0.59868 F3240
G1 X1 Y19 Z1.2 E0.59868 F3240
G1 X1 Y1 Z1.2 E0.59868 F3240
G1 X19 Y1 Z1.2 E0.59868 F3240
;TYPE:Sparse infill
G1 X2.6 Y1.4 Z1.2 F6000
G1 X2.6 Y18.6 Z1.2 E0.57207 F6000
G1 X4.6 Y1.4 Z1.2 F6000
G1 X4.6 Y18.6 Z1.2 E0.57207 F6000
G1 X6.6 Y1.4 Z1.2 F6000
G1 X6.6 Y18.6 Z1.2 E0.57207 F6000
G1 X8.6 Y1.4 Z1.2 F6000
G1 X8.6 Y18.6 Z1.2 E0.57207 F6000
G1 X10.6 Y1.4 Z1.2 F6000
G1 X10.6 Y18.6 Z1.2 E0.57207 F6000
G1 X12.6 Y1.4 Z1.2 F6000
G1 X12.6 Y18.6 Z1.2 E0.57207 F6000
G1 X14.6 Y1.4 Z1.2 F6000
G1 X14.6 Y18.6 Z1.2 E0.57207 F6000
G1 X16.6 Y1.4 Z1.2 F6000
G1 X16.6 Y18.6 Z1.2 E0.57207 F6000
G1 E-0.80000 F25
; path-optimization layer 5 regions=1 entities=3
G1 E0.80000 F25
;LAYER_CHANGE
;Z:1.4
;HEIGHT:0.2
;TYPE:Outer wall
G1 X0.2 Y0.2 Z1.4 F2160
G1 X19.8 Y0.2 Z1.4 E0.65190 F2160
G1 X19.8 Y19.8 Z1.4 E0.65190 F2160
G1 X0.2 Y19.8 Z1.4 E0.65190 F2160
G1 X0.2 Y0.2 Z1.4 E0.65190 F2160
;TYPE:Inner wall
G1 X19.4 Y0.6 Z1.4 F3240
G1 X19.4 Y19.4 Z1.4 E0.62529 F3240
G1 X0.6 Y19.4 Z1.4 E0.62529 F3240
G1 X0.6 Y0.6 Z1.4 E0.62529 F3240
G1 X19.4 Y0.6 Z1.4 E0.62529 F3240
G1 X19 Y1 Z1.4 F3240
G1 X19 Y19 Z1.4 E0.59868 F3240
G1 X1 Y19 Z1.4 E0.59868 F3240
G1 X1 Y1 Z1.4 E0.59868 F3240
G1 X19 Y1 Z1.4 E0.59868 F3240
;TYPE:Sparse infill
G1 X1.4 Y3.4 Z1.4 F6000
G1 X18.6 Y3.4 Z1.4 E0.57207 F6000
G1 X1.4 Y5.4 Z1.4 F6000
G1 X18.6 Y5.4 Z1.4 E0.57207 F6000
G1 X1.4 Y7.4 Z1.4 F6000
G1 X18.6 Y7.4 Z1.4 E0.57207 F6000
G1 X1.4 Y9.4 Z1.4 F6000
G1 X18.6 Y9.4 Z1.4 E0.57207 F6000
G1 X1.4 Y11.4 Z1.4 F6000
G1 X18.6 Y11.4 Z1.4 E0.57207 F6000
G1 X1.4 Y13.4 Z1.4 F6000
G1 X18.6 Y13.4 Z1.4 E0.57207 F6000
G1 X1.4 Y15.4 Z1.4 F6000
G1 X18.6 Y15.4 Z1.4 E0.57207 F6000
G1 X1.4 Y17.4 Z1.4 F6000
G1 X18.6 Y17.4 Z1.4 E0.57207 F6000
G1 E-0.80000 F25
; path-optimization layer 6 regions=1 entities=3
G1 E0.80000 F25
;LAYER_CHANGE
;Z:1.6
;HEIGHT:0.2
;TYPE:Outer wall
G1 X0.2 Y0.2 Z1.6 F2160
G1 X19.8 Y0.2 Z1.6 E0.65190 F2160
G1 X19.8 Y19.8 Z1.6 E0.65190 F2160
G1 X0.2 Y19.8 Z1.6 E0.65190 F2160
G1 X0.2 Y0.2 Z1.6 E0.65190 F2160
;TYPE:Inner wall
G1 X19.4 Y0.6 Z1.6 F3240
G1 X19.4 Y19.4 Z1.6 E0.62529 F3240
G1 X0.6 Y19.4 Z1.6 E0.62529 F3240
G1 X0.6 Y0.6 Z1.6 E0.62529 F3240
G1 X19.4 Y0.6 Z1.6 E0.62529 F3240
G1 X19 Y1 Z1.6 F3240
G1 X19 Y19 Z1.6 E0.59868 F3240
G1 X1 Y19 Z1.6 E0.59868 F3240
G1 X1 Y1 Z1.6 E0.59868 F3240
G1 X19 Y1 Z1.6 E0.59868 F3240
;TYPE:Sparse infill
G1 X2.6 Y1.4 Z1.6 F6000
G1 X2.6 Y18.6 Z1.6 E0.57207 F6000
G1 X4.6 Y1.4 Z1.6 F6000
G1 X4.6 Y18.6 Z1.6 E0.57207 F6000
G1 X6.6 Y1.4 Z1.6 F6000
G1 X6.6 Y18.6 Z1.6 E0.57207 F6000
G1 X8.6 Y1.4 Z1.6 F6000
G1 X8.6 Y18.6 Z1.6 E0.57207 F6000
G1 X10.6 Y1.4 Z1.6 F6000
G1 X10.6 Y18.6 Z1.6 E0.57207 F6000
G1 X12.6 Y1.4 Z1.6 F6000
G1 X12.6 Y18.6 Z1.6 E0.57207 F6000
G1 X14.6 Y1.4 Z1.6 F6000
G1 X14.6 Y18.6 Z1.6 E0.57207 F6000
G1 X16.6 Y1.4 Z1.6 F6000
G1 X16.6 Y18.6 Z1.6 E0.57207 F6000
G1 E-0.80000 F25
; path-optimization layer 7 regions=1 entities=3
G1 E0.80000 F25
;LAYER_CHANGE
;Z:1.8
;HEIGHT:0.2
;TYPE:Outer wall
G1 X0.2 Y0.2 Z1.8 F2160
G1 X19.8 Y0.2 Z1.8 E0.65190 F2160
G1 X19.8 Y19.8 Z1.8 E0.65190 F2160
G1 X0.2 Y19.8 Z1.8 E0.65190 F2160
G1 X0.2 Y0.2 Z1.8 E0.65190 F2160
;TYPE:Inner wall
G1 X19.4 Y0.6 Z1.8 F3240
G1 X19.4 Y19.4 Z1.8 E0.62529 F3240
G1 X0.6 Y19.4 Z1.8 E0.62529 F3240
G1 X0.6 Y0.6 Z1.8 E0.62529 F3240
G1 X19.4 Y0.6 Z1.8 E0.62529 F3240
G1 X19 Y1 Z1.8 F3240
G1 X19 Y19 Z1.8 E0.59868 F3240
G1 X1 Y19 Z1.8 E0.59868 F3240
G1 X1 Y1 Z1.8 E0.59868 F3240
G1 X19 Y1 Z1.8 E0.59868 F3240
;TYPE:Sparse infill
G1 X1.4 Y3.4 Z1.8 F6000
G1 X18.6 Y3.4 Z1.8 E0.57207 F6000
G1 X1.4 Y5.4 Z1.8 F6000
G1 X18.6 Y5.4 Z1.8 E0.57207 F6000
G1 X1.4 Y7.4 Z1.8 F6000
G1 X18.6 Y7.4 Z1.8 E0.57207 F6000
G1 X1.4 Y9.4 Z1.8 F6000
G1 X18.6 Y9.4 Z1.8 E0.57207 F6000
G1 X1.4 Y11.4 Z1.8 F6000
G1 X18.6 Y11.4 Z1.8 E0.57207 F6000
G1 X1.4 Y13.4 Z1.8 F6000
G1 X18.6 Y13.4 Z1.8 E0.57207 F6000
G1 X1.4 Y15.4 Z1.8 F6000
G1 X18.6 Y15.4 Z1.8 E0.57207 F6000
G1 X1.4 Y17.4 Z1.8 F6000
G1 X18.6 Y17.4 Z1.8 E0.57207 F6000
G1 E-0.80000 F25
; path-optimization layer 8 regions=1 entities=3
G1 E0.80000 F25
;LAYER_CHANGE
;Z:2
;HEIGHT:0.2
;TYPE:Outer wall
G1 X0.2 Y0.2 Z2 F2160
G1 X19.8 Y0.2 Z2 E0.65190 F2160
G1 X19.8 Y19.8 Z2 E0.65190 F2160
G1 X0.2 Y19.8 Z2 E0.65190 F2160
G1 X0.2 Y0.2 Z2 E0.65190 F2160
;TYPE:Inner wall
G1 X19.4 Y0.6 Z2 F3240
G1 X19.4 Y19.4 Z2 E0.62529 F3240
G1 X0.6 Y19.4 Z2 E0.62529 F3240
G1 X0.6 Y0.6 Z2 E0.62529 F3240
G1 X19.4 Y0.6 Z2 E0.62529 F3240
G1 X19 Y1 Z2 F3240
G1 X19 Y19 Z2 E0.59868 F3240
G1 X1 Y19 Z2 E0.59868 F3240
G1 X1 Y1 Z2 E0.59868 F3240
G1 X19 Y1 Z2 E0.59868 F3240
;TYPE:Sparse infill
G1 X2.6 Y1.4 Z2 F6000
G1 X2.6 Y18.6 Z2 E0.57207 F6000
G1 X4.6 Y1.4 Z2 F6000
G1 X4.6 Y18.6 Z2 E0.57207 F6000
G1 X6.6 Y1.4 Z2 F6000
G1 X6.6 Y18.6 Z2 E0.57207 F6000
G1 X8.6 Y1.4 Z2 F6000
G1 X8.6 Y18.6 Z2 E0.57207 F6000
G1 X10.6 Y1.4 Z2 F6000
G1 X10.6 Y18.6 Z2 E0.57207 F6000
G1 X12.6 Y1.4 Z2 F6000
G1 X12.6 Y18.6 Z2 E0.57207 F6000
G1 X14.6 Y1.4 Z2 F6000
G1 X14.6 Y18.6 Z2 E0.57207 F6000
G1 X16.6 Y1.4 Z2 F6000
G1 X16.6 Y18.6 Z2 E0.57207 F6000
G1 E-0.80000 F25
; path-optimization layer 9 regions=1 entities=3
G1 E0.80000 F25
;LAYER_CHANGE
;Z:2.2
;HEIGHT:0.2
;TYPE:Outer wall
G1 X0.2 Y0.2 Z2.2 F2160
G1 X19.8 Y0.2 Z2.2 E0.65190 F2160
G1 X19.8 Y19.8 Z2.2 E0.65190 F2160
G1 X0.2 Y19.8 Z2.2 E0.65190 F2160
G1 X0.2 Y0.2 Z2.2 E0.65190 F2160
;TYPE:Inner wall
G1 X19.4 Y0.6 Z2.2 F3240
G1 X19.4 Y19.4 Z2.2 E0.62529 F3240
G1 X0.6 Y19.4 Z2.2 E0.62529 F3240
G1 X0.6 Y0.6 Z2.2 E0.62529 F3240
G1 X19.4 Y0.6 Z2.2 E0.62529 F3240
G1 X19 Y1 Z2.2 F3240
