; HEADER_BLOCK_START
; total layer number: 99
; filament_diameter: 1.75
; filament_density: 1.24
; max_z_height: 19.80
; filament: 1
; filament_colour = #EC0006
; extruder_colour = #EC0006
; HEADER_BLOCK_END
; outer_wall_line_width = 0.42
; inner_wall_line_width = 0.45
; sparse_infill_line_width = 0.45
; top_surface_line_width = 0.42
; support_line_width = 0.35
M83
;LAYER_CHANGE
;Z:0.2
;HEIGHT:0.2
;TYPE:Skirt/Brim
G1 X-2.8 Y-2.8 Z0.2 F3000
G1 X22.8 Y-2.8 Z0.2 E10.24000 F3000
G1 X22.8 Y22.8 Z0.2 E10.24000 F3000
G1 X-2.8 Y22.8 Z0.2 E10.24000 F3000
G1 X-2.8 Y-2.8 Z0.2 E10.24000 F3000
G1 X-3.2 Y-3.2 Z0.2 F3000
G1 X23.2 Y-3.2 Z0.2 E10.56000 F3000
G1 X23.2 Y23.2 Z0.2 E10.56000 F3000
G1 X-3.2 Y23.2 Z0.2 E10.56000 F3000
G1 X-3.2 Y-3.2 Z0.2 E10.56000 F3000
G1 X-3.6 Y-3.6 Z0.2 F3000
G1 X23.6 Y-3.6 Z0.2 E10.88000 F3000
G1 X23.6 Y23.6 Z0.2 E10.88000 F3000
G1 X-3.6 Y23.6 Z0.2 E10.88000 F3000
G1 X-3.6 Y-3.6 Z0.2 E10.88000 F3000
G1 X-4 Y-4 Z0.2 F3000
G1 X24 Y-4 Z0.2 E11.20000 F3000
G1 X24 Y24 Z0.2 E11.20000 F3000
G1 X-4 Y24 Z0.2 E11.20000 F3000
G1 X-4 Y-4 Z0.2 E11.20000 F3000
G1 X-4.4 Y-4.4 Z0.2 F3000
G1 X24.4 Y-4.4 Z0.2 E11.52000 F3000
G1 X24.4 Y24.4 Z0.2 E11.52000 F3000
G1 X-4.4 Y24.4 Z0.2 E11.52000 F3000
G1 X-4.4 Y-4.4 Z0.2 E11.52000 F3000
G1 X-4.8 Y-4.8 Z0.2 F3000
G1 X24.8 Y-4.8 Z0.2 E11.84000 F3000
G1 X24.8 Y24.8 Z0.2 E11.84000 F3000
G1 X-4.8 Y24.8 Z0.2 E11.84000 F3000
G1 X-4.8 Y-4.8 Z0.2 E11.84001 F3000
G1 X-7.8 Y-7.8 Z0.2 F3000
G1 X27.8 Y-7.8 Z0.2 E14.23999 F3000
G1 X27.8 Y27.8 Z0.2 E14.23999 F3000
G1 X-7.8 Y27.8 Z0.2 E14.23999 F3000
G1 X-7.8 Y-7.8 Z0.2 E14.23999 F3000
G1 X-7.4 Y-7.4 Z0.2 F3000
G1 X27.4 Y-7.4 Z0.2 E13.92001 F3000
G1 X27.4 Y27.4 Z0.2 E13.92001 F3000
G1 X-7.4 Y27.4 Z0.2 E13.92001 F3000
G1 X-7.4 Y-7.4 Z0.2 E13.92001 F3000
G1 X-7 Y-7 Z0.2 F3000
G1 X27 Y-7 Z0.2 E13.60001 F3000
G1 X27 Y27 Z0.2 E13.60001 F3000
G1 X-7 Y27 Z0.2 E13.60001 F3000
G1 X-7 Y-7 Z0.2 E13.60001 F3000
G1 X-6.6 Y-6.6 Z0.2 F3000
G1 X26.6 Y-6.6 Z0.2 E13.28000 F3000
G1 X26.6 Y26.6 Z0.2 E13.28000 F3000
G1 X-6.6 Y26.6 Z0.2 E13.28000 F3000
G1 X-6.6 Y-6.6 Z0.2 E13.28000 F3000
G1 X-6.2 Y-6.2 Z0.2 F3000
G1 X26.2 Y-6.2 Z0.2 E12.95999 F3000
G1 X26.2 Y26.2 Z0.2 E12.95999 F3000
G1 X-6.2 Y26.2 Z0.2 E12.95999 F3000
G1 X-6.2 Y-6.2 Z0.2 E12.96002 F3000
G1 X-5.8 Y-5.8 Z0.2 F3000
G1 X25.8 Y-5.8 Z0.2 E12.64001 F3000
G1 X25.8 Y25.8 Z0.2 E12.64001 F3000
G1 X-5.8 Y25.8 Z0.2 E12.64001 F3000
G1 X-5.8 Y-5.8 Z0.2 E12.64001 F3000
G1 X-5.4 Y-5.4 Z0.2 F3000
G1 X25.4 Y-5.4 Z0.2 E12.32001 F3000
G1 X25.4 Y25.4 Z0.2 E12.32001 F3000
G1 X-5.4 Y25.4 Z0.2 E12.32001 F3000
G1 X-5.4 Y-5.4 Z0.2 E12.32001 F3000
G1 X-5 Y-5 Z0.2 F3000
G1 X25 Y-5 Z0.2 E12.00000 F3000
G1 X25 Y25 Z0.2 E12.00000 F3000
G1 X-5 Y25 Z0.2 E12.00000 F3000
G1 X-5 Y-5 Z0.2 E12.00000 F3000
G1 X-4.6 Y-4.6 Z0.2 F3000
G1 X24.6 Y-4.6 Z0.2 E11.67999 F3000
G1 X24.6 Y24.6 Z0.2 E11.67999 F3000
G1 X-4.6 Y24.6 Z0.2 E11.67999 F3000
G1 X-4.6 Y-4.6 Z0.2 E11.67999 F3000
G1 X-4.2 Y-4.2 Z0.2 F3000
G1 X24.2 Y-4.2 Z0.2 E11.35999 F3000
G1 X24.2 Y24.2 Z0.2 E11.35999 F3000
G1 X-4.2 Y24.2 Z0.2 E11.35999 F3000
G1 X-4.2 Y-4.2 Z0.2 E11.35999 F3000
G1 X-3.8 Y-3.8 Z0.2 F3000
G1 X23.8 Y-3.8 Z0.2 E11.03998 F3000
G1 X23.8 Y23.8 Z0.2 E11.03998 F3000
G1 X-3.8 Y23.8 Z0.2 E11.03998 F3000
G1 X-3.8 Y-3.8 Z0.2 E11.03998 F3000
G1 X-3.4 Y-3.4 Z0.2 F3000
G1 X23.4 Y-3.4 Z0.2 E10.71997 F3000
G1 X23.4 Y23.4 Z0.2 E10.71997 F3000
G1 X-3.4 Y23.4 Z0.2 E10.71997 F3000
G1 X-3.4 Y-3.4 Z0.2 E10.71997 F3000
G1 X-3 Y-3 Z0.2 F3000
G1 X23 Y-3 Z0.2 E10.40002 F3000
G1 X23 Y23 Z0.2 E10.40002 F3000
G1 X-3 Y23 Z0.2 E10.40002 F3000
G1 X-3 Y-3 Z0.2 E10.40002 F3000
G1 X-2.6 Y-2.6 Z0.2 F3000
G1 X22.6 Y-2.6 Z0.2 E10.08002 F3000
G1 X22.6 Y22.6 Z0.2 E10.08002 F3000
G1 X-2.6 Y22.6 Z0.2 E10.08002 F3000
G1 X-2.6 Y-2.6 Z0.2 E10.08002 F3000
; path-optimization layer 0 regions=1 entities=3
G1 X-2.2 Y-2.2 Z0.2 F3000
G1 X22.2 Y-2.2 Z0.2 E9.76001 F3000
G1 X22.2 Y22.2 Z0.2 E9.76001 F3000
G1 X-2.2 Y22.2 Z0.2 E9.76001 F3000
G1 X-2.2 Y-2.2 Z0.2 E9.76001 F3000
G1 X-1.8 Y-1.8 Z0.2 F3000
G1 X21.8 Y-1.8 Z0.2 E9.44000 F3000
G1 X21.8 Y21.8 Z0.2 E9.44000 F3000
G1 X-1.8 Y21.8 Z0.2 E9.44000 F3000
G1 X-1.8 Y-1.8 Z0.2 E9.44000 F3000
G1 X-1.4 Y-1.4 Z0.2 F3000
G1 X21.4 Y-1.4 Z0.2 E9.12006 F3000
G1 X21.4 Y21.4 Z0.2 E9.12000 F3000
G1 X-1.4 Y21.4 Z0.2 E9.12000 F3000
G1 X-1.4 Y-1.4 Z0.2 E9.12000 F3000
G1 X-1 Y-1 Z0.2 F3000
G1 X21 Y-1 Z0.2 E8.80005 F3000
G1 X21 Y21 Z0.2 E8.80005 F3000
G1 X-1 Y21 Z0.2 E8.80005 F3000
G1 X-1 Y-1 Z0.2 E8.80005 F3000
G1 X-0.6 Y-0.6 Z0.2 F3000
G1 X20.6 Y-0.6 Z0.2 E8.47998 F3000
G1 X20.6 Y20.6 Z0.2 E8.47998 F3000
G1 X-0.6 Y20.6 Z0.2 E8.47998 F3000
G1 X-0.6 Y-0.6 Z0.2 E8.47998 F3000
G1 X-0.2 Y-0.2 Z0.2 F3000
G1 X20.2 Y-0.2 Z0.2 E8.16003 F3000
G1 X20.2 Y20.2 Z0.2 E8.16003 F3000
G1 X-0.2 Y20.2 Z0.2 E8.16003 F3000
G1 X-0.2 Y-0.2 Z0.2 E8.16003 F3000
G0 X19.8 Y0.2 F7200
;TYPE:Outer wall
G1 X19.8 Y0.2 Z0.2 F2160
G1 X19.8 Y19.8 Z0.2 E15.68005 F2160
G1 X0.2 Y19.8 Z0.2 E15.68005 F2160
G1 X0.2 Y0.2 Z0.2 E15.68005 F2160
G1 X19.8 Y0.2 Z0.2 E15.68005 F2160
;TYPE:Inner wall
G1 X19 Y1 Z0.2 F3240
G1 X19 Y19 Z0.2 E14.40002 F3240
G1 X1 Y19 Z0.2 E14.40002 F3240
G1 X1 Y1 Z0.2 E14.40002 F3240
G1 X19 Y1 Z0.2 E14.40002 F3240
G1 X19.4 Y0.6 Z0.2 F3240
G1 X19.4 Y19.4 Z0.2 E15.04004 F3240
G1 X0.6 Y19.4 Z0.2 E15.04004 F3240
G1 X0.6 Y0.6 Z0.2 E15.04004 F3240
G1 X19.4 Y0.6 Z0.2 E15.04004 F3240
;TYPE:Bottom surface
G1 X2.478 Y1.633 Z0.2 F6000
G1 X2.752 Y2.27 Z0.2 E0.27722 F6000
G1 X3.223 Y2.709 Z0.2 E0.25769 F6000
G1 X3.556 Y2.832 Z0.2 E0.14185 F6000
G1 X3.98 Y2.862 Z0.2 E0.17029 F6000
G1 X4.864 Y2.89 Z0.2 E0.35352 F6000
G1 X5.5 Y3.163 Z0.2 E0.27722 F6000
G1 X5.939 Y3.634 Z0.2 E0.25769 F6000
G1 X6.062 Y3.967 Z0.2 E0.14185 F6000
G1 X6.093 Y4.392 Z0.2 E0.17029 F6000
G1 X6.12 Y5.275 Z0.2 E0.35352 F6000
G1 X6.393 Y5.912 Z0.2 E0.27722 F6000
G1 X6.865 Y6.351 Z0.2 E0.25769 F6000
G1 X7.198 Y6.473 Z0.2 E0.14185 F6000
G1 X7.622 Y6.504 Z0.2 E0.17029 F6000
G1 X8.505 Y6.531 Z0.2 E0.35352 F6000
G1 X9.142 Y6.805 Z0.2 E0.27722 F6000
G1 X9.581 Y7.276 Z0.2 E0.25769 F6000
G1 X9.704 Y7.609 Z0.2 E0.14185 F6000
G1 X9.735 Y8.033 Z0.2 E0.17029 F6000
G1 X9.762 Y8.917 Z0.2 E0.35352 F6000
G1 X10.035 Y9.553 Z0.2 E0.27722 F6000
G1 X10.507 Y9.993 Z0.2 E0.25769 F6000
G1 X10.839 Y10.115 Z0.2 E0.14185 F6000
G1 X11.264 Y10.146 Z0.2 E0.17029 F6000
G1 X12.147 Y10.173 Z0.2 E0.35352 F6000
G1 X12.784 Y10.447 Z0.2 E0.27722 F6000
G1 X13.223 Y10.918 Z0.2 E0.25769 F6000
G1 X13.345 Y11.251 Z0.2 E0.14185 F6000
G1 X13.376 Y11.675 Z0.2 E0.17029 F6000
G1 X13.403 Y12.558 Z0.2 E0.35352 F6000
G1 X13.677 Y13.195 Z0.2 E0.27722 F6000
G1 X14.148 Y13.634 Z0.2 E0.25769 F6000
G1 X14.481 Y13.757 Z0.2 E0.14185 F6000
G1 X14.905 Y13.788 Z0.2 E0.17029 F6000
G1 X15.789 Y13.815 Z0.2 E0.35352 F6000
G1 X16.426 Y14.088 Z0.2 E0.27722 F6000
G1 X16.865 Y14.56 Z0.2 E0.25769 F6000
G1 X16.987 Y14.892 Z0.2 E0.14185 F6000
G1 X17.018 Y15.317 Z0.2 E0.17029 F6000
G1 X17.045 Y16.2 Z0.2 E0.35352 F6000
G1 X17.319 Y16.837 Z0.2 E0.27722 F6000
G1 X17.79 Y17.276 Z0.2 E0.25769 F6000
G1 X18.123 Y17.399 Z0.2 E0.14185 F6000
G1 X18.547 Y17.429 Z0.2 E0.17029 F6000
G1 X17.045 Y1.633 Z0.2 F6000
G1 X17.319 Y2.27 Z0.2 E0.27722 F6000
G1 X17.79 Y2.709 Z0.2 E0.25769 F6000
G1 X18.123 Y2.832 Z0.2 E0.14185 F6000
G1 X18.547 Y2.862 Z0.2 E0.17029 F6000
G1 X14.878 Y1.979 Z0.2 F6000
G1 X14.905 Y2.862 Z0.2 E0.35352 F6000
G1 X14.936 Y3.287 Z0.2 E0.17029 F6000
G1 X15.059 Y3.62 Z0.2 E0.14185 F6000
G1 X15.498 Y4.091 Z0.2 E0.25769 F6000
G1 X16.135 Y4.364 Z0.2 E0.27722 F6000
G1 X17.018 Y4.392 Z0.2 E0.35352 F6000
G1 X17.442 Y4.422 Z0.2 E0.17029 F6000
G1 X17.775 Y4.545 Z0.2 E0.14185 F6000
G1 X18.246 Y4.984 Z0.2 E0.25769 F6000
G1 X18.52 Y5.621 Z0.2 E0.27722 F6000
G1 X18.547 Y6.504 Z0.2 E0.35352 F6000
G1 X18.578 Y6.929 Z0.2 E0.17029 F6000
G1 X9.762 Y1.633 Z0.2 F6000
G1 X10.035 Y2.27 Z0.2 E0.27722 F6000
G1 X10.507 Y2.709 Z0.2 E0.25769 F6000
G1 X10.839 Y2.832 Z0.2 E0.14185 F6000
G1 X11.264 Y2.862 Z0.2 E0.17029 F6000
G1 X12.147 Y2.89 Z0.2 E0.35352 F6000
G1 X12.784 Y3.163 Z0.2 E0.27722 F6000
G1 X13.223 Y3.634 Z0.2 E0.25769 F6000
G1 X13.345 Y3.967 Z0.2 E0.14185 F6000
G1 X13.376 Y4.392 Z0.2 E0.17029 F6000
G1 X13.403 Y5.275 Z0.2 E0.35352 F6000
G1 X13.677 Y5.912 Z0.2 E0.27722 F6000
G1 X14.148 Y6.351 Z0.2 E0.25769 F6000
G1 X14.481 Y6.473 Z0.2 E0.14185 F6000
G1 X14.905 Y6.504 Z0.2 E0.17029 F6000
G1 X15.789 Y6.531 Z0.2 E0.35352 F6000
G1 X16.426 Y6.805 Z0.2 E0.27722 F6000
G1 X16.865 Y7.276 Z0.2 E0.25769 F6000
G1 X16.987 Y7.609 Z0.2 E0.14185 F6000
G1 X17.018 Y8.033 Z0.2 E0.17029 F6000
G1 X17.045 Y8.917 Z0.2 E0.35352 F6000
G1 X17.319 Y9.553 Z0.2 E0.27722 F6000
G1 X17.79 Y9.993 Z0.2 E0.25769 F6000
G1 X18.123 Y10.115 Z0.2 E0.14185 F6000
G1 X18.547 Y10.146 Z0.2 E0.17029 F6000
G1 X7.595 Y1.979 Z0.2 F6000
G1 X7.622 Y2.862 Z0.2 E0.35352 F6000
G1 X7.653 Y3.287 Z0.2 E0.17029 F6000
G1 X7.775 Y3.62 Z0.2 E0.14185 F6000
G1 X8.214 Y4.091 Z0.2 E0.25769 F6000
G1 X8.851 Y4.364 Z0.2 E0.27722 F6000
G1 X9.735 Y4.392 Z0.2 E0.35352 F6000
G1 X10.159 Y4.422 Z0.2 E0.17029 F6000
G1 X10.492 Y4.545 Z0.2 E0.14185 F6000
G1 X10.963 Y4.984 Z0.2 E0.25769 F6000
G1 X11.237 Y5.621 Z0.2 E0.27722 F6000
G1 X11.264 Y6.504 Z0.2 E0.35352 F6000
G1 X11.294 Y6.929 Z0.2 E0.17029 F6000
G1 X11.417 Y7.261 Z0.2 E0.14185 F6000
G1 X11.856 Y7.733 Z0.2 E0.25769 F6000
G1 X12.493 Y8.006 Z0.2 E0.27722 F6000
G1 X13.376 Y8.033 Z0.2 E0.35352 F6000
G1 X13.801 Y8.064 Z0.2 E0.17029 F6000
G1 X14.133 Y8.187 Z0.2 E0.14185 F6000
G1 X14.605 Y8.626 Z0.2 E0.25769 F6000
G1 X14.878 Y9.263 Z0.2 E0.27722 F6000
G1 X14.905 Y10.146 Z0.2 E0.35352 F6000
G1 X14.936 Y10.57 Z0.2 E0.17029 F6000
G1 X15.059 Y10.903 Z0.2 E0.14185 F6000
G1 X15.498 Y11.374 Z0.2 E0.25769 F6000
G1 X16.135 Y11.648 Z0.2 E0.27722 F6000
G1 X17.018 Y11.675 Z0.2 E0.35352 F6000
G1 X17.442 Y11.706 Z0.2 E0.17029 F6000
G1 X17.775 Y11.828 Z0.2 E0.14185 F6000
G1 X18.246 Y12.267 Z0.2 E0.25769 F6000
G1 X18.52 Y12.904 Z0.2 E0.27722 F6000
G1 X18.547 Y13.788 Z0.2 E0.35352 F6000
G1 X18.578 Y14.212 Z0.2 E0.17029 F6000
G1 X1.859 Y14.088 Z0.2 F6000
G1 X2.298 Y14.56 Z0.2 E0.25769 F6000
G1 X2.42 Y14.892 Z0.2 E0.14185 F6000
G1 X2.451 Y15.317 Z0.2 E0.17029 F6000
G1 X2.478 Y16.2 Z0.2 E0.35352 F6000
G1 X2.752 Y16.837 Z0.2 E0.27722 F6000
G1 X3.223 Y17.276 Z0.2 E0.25769 F6000
G1 X3.556 Y17.399 Z0.2 E0.14185 F6000
G1 X3.98 Y17.429 Z0.2 E0.17029 F6000
G1 X4.864 Y17.456 Z0.2 E0.35352 F6000
G1 X5.5 Y17.73 Z0.2 E0.27722 F6000
G1 X5.939 Y18.201 Z0.2 E0.25769 F6000
G1 X6.062 Y18.534 Z0.2 E0.14185 F6000
G1 X1.4 Y17.4 Z0.2 F6000
G1 X18.6 Y17.4 Z0.2 E6.88000 F6000
G1 X1.4 Y15.4 Z0.2 F6000
G1 X18.6 Y15.4 Z0.2 E6.88000 F6000
G1 X1.4 Y13.4 Z0.2 F6000
G1 X18.6 Y13.4 Z0.2 E6.88000 F6000
G1 X1.568 Y11.648 Z0.2 F6000
G1 X2.451 Y11.675 Z0.2 E0.35352 F6000
G1 X2.876 Y11.706 Z0.2 E0.17029 F6000
G1 X3.208 Y11.828 Z0.2 E0.14185 F6000
G1 X3.68 Y12.267 Z0.2 E0.25769 F6000
G1 X3.953 Y12.904 Z0.2 E0.27722 F6000
G1 X3.98 Y13.788 Z0.2 E0.35352 F6000
G1 X4.011 Y14.212 Z0.2 E0.17029 F6000
G1 X4.134 Y14.545 Z0.2 E0.14185 F6000
G1 X4.573 Y15.016 Z0.2 E0.25769 F6000
G1 X5.21 Y15.29 Z0.2 E0.27722 F6000
G1 X6.093 Y15.317 Z0.2 E0.35352 F6000
G1 X6.517 Y15.347 Z0.2 E0.17029 F6000
G1 X6.85 Y15.47 Z0.2 E0.14185 F6000
G1 X7.321 Y15.909 Z0.2 E0.25769 F6000
G1 X7.595 Y16.546 Z0.2 E0.27722 F6000
G1 X7.622 Y17.429 Z0.2 E0.35352 F6000
G1 X7.653 Y17.854 Z0.2 E0.17029 F6000
G1 X7.775 Y18.186 Z0.2 E0.14185 F6000
G1 X1.4 Y11.4 Z0.2 F6000
G1 X18.6 Y11.4 Z0.2 E6.88000 F6000
G1 X1.4 Y9.4 Z0.2 F6000
G1 X18.6 Y9.4 Z0.2 E6.88000 F6000
G1 X1.859 Y6.805 Z0.2 F6000
G1 X2.298 Y7.276 Z0.2 E0.25769 F6000
G1 X2.42 Y7.609 Z0.2 E0.14185 F6000
G1 X2.451 Y8.033 Z0.2 E0.17029 F6000
G1 X2.478 Y8.917 Z0.2 E0.35352 F6000
G1 X2.752 Y9.553 Z0.2 E0.27722 F6000
G1 X3.223 Y9.993 Z0.2 E0.25769 F6000
G1 X3.556 Y10.115 Z0.2 E0.14185 F6000
G1 X3.98 Y10.146 Z0.2 E0.17029 F6000
G1 X4.864 Y10.173 Z0.2 E0.35352 F6000
G1 X5.5 Y10.447 Z0.2 E0.27722 F6000
G1 X5.939 Y10.918 Z0.2 E0.25769 F6000
G1 X6.062 Y11.251 Z0.2 E0.14185 F6000
G1 X6.093 Y11.675 Z0.2 E0.17029 F6000
G1 X6.12 Y12.558 Z0.2 E0.35352 F6000
G1 X6.393 Y13.195 Z0.2 E0.27722 F6000
G1 X6.865 Y13.634 Z0.2 E0.25769 F6000
G1 X7.198 Y13.757 Z0.2 E0.14185 F6000
G1 X7.622 Y13.788 Z0.2 E0.17029 F6000
G1 X8.505 Y13.815 Z0.2 E0.35352 F6000
G1 X9.142 Y14.088 Z0.2 E0.27722 F6000
G1 X9.581 Y14.56 Z0.2 E0.25769 F6000
G1 X9.704 Y14.892 Z0.2 E0.14185 F6000
G1 X9.735 Y15.317 Z0.2 E0.17029 F6000
G1 X9.762 Y16.2 Z0.2 E0.35352 F6000
G1 X10.035 Y16.837 Z0.2 E0.27722 F6000
G1 X10.507 Y17.276 Z0.2 E0.25769 F6000
G1 X10.839 Y17.399 Z0.2 E0.14185 F6000
G1 X11.264 Y17.429 Z0.2 E0.17029 F6000
G1 X12.147 Y17.456 Z0.2 E0.35352 F6000
G1 X12.784 Y17.73 Z0.2 E0.27722 F6000
G1 X13.223 Y18.201 Z0.2 E0.25769 F6000
G1 X13.345 Y18.534 Z0.2 E0.14185 F6000
G1 X1.4 Y7.4 Z0.2 F6000
G1 X18.6 Y7.4 Z0.2 E6.88000 F6000
G1 X1.568 Y4.364 Z0.2 F6000
G1 X2.451 Y4.392 Z0.2 E0.35352 F6000
G1 X2.876 Y4.422 Z0.2 E0.17029 F6000
G1 X3.208 Y4.545 Z0.2 E0.14185 F6000
G1 X3.68 Y4.984 Z0.2 E0.25769 F6000
G1 X3.953 Y5.621 Z0.2 E0.27722 F6000
G1 X3.98 Y6.504 Z0.2 E0.35352 F6000
G1 X4.011 Y6.929 Z0.2 E0.17029 F6000
G1 X4.134 Y7.261 Z0.2 E0.14185 F6000
G1 X4.573 Y7.733 Z0.2 E0.25769 F6000
G1 X5.21 Y8.006 Z0.2 E0.27722 F6000
G1 X6.093 Y8.033 Z0.2 E0.35352 F6000
G1 X6.517 Y8.064 Z0.2 E0.17029 F6000
G1 X6.85 Y8.187 Z0.2 E0.14185 F6000
G1 X7.321 Y8.626 Z0.2 E0.25769 F6000
G1 X7.595 Y9.263 Z0.2 E0.27722 F6000
G1 X7.622 Y10.146 Z0.2 E0.35352 F6000
G1 X7.653 Y10.57 Z0.2 E0.17029 F6000
G1 X7.775 Y10.903 Z0.2 E0.14185 F6000
G1 X8.214 Y11.374 Z0.2 E0.25769 F6000
G1 X8.851 Y11.648 Z0.2 E0.27722 F6000
G1 X9.735 Y11.675 Z0.2 E0.35352 F6000
G1 X10.159 Y11.706 Z0.2 E0.17029 F6000
G1 X10.492 Y11.828 Z0.2 E0.14185 F6000
G1 X10.963 Y12.267 Z0.2 E0.25769 F6000
G1 X11.237 Y12.904 Z0.2 E0.27722 F6000
G1 X11.264 Y13.788 Z0.2 E0.35352 F6000
G1 X11.294 Y14.212 Z0.2 E0.17029 F6000
G1 X11.417 Y14.545 Z0.2 E0.14185 F6000
G1 X11.856 Y15.016 Z0.2 E0.25769 F6000
G1 X12.493 Y15.29 Z0.2 E0.27722 F6000
G1 X13.376 Y15.317 Z0.2 E0.35352 F6000
G1 X13.801 Y15.347 Z0.2 E0.17029 F6000
G1 X14.133 Y15.47 Z0.2 E0.14185 F6000
G1 X14.605 Y15.909 Z0.2 E0.25769 F6000
G1 X14.878 Y16.546 Z0.2 E0.27722 F6000
G1 X14.905 Y17.429 Z0.2 E0.35352 F6000
G1 X14.936 Y17.854 Z0.2 E0.17029 F6000
G1 X15.059 Y18.186 Z0.2 E0.14185 F6000
G1 X1.4 Y5.4 Z0.2 F6000
G1 X18.6 Y5.4 Z0.2 E6.88000 F6000
G1 X1.4 Y3.4 Z0.2 F6000
G1 X18.6 Y3.4 Z0.2 E6.88000 F6000
;LAYER_CHANGE
;Z:0.4
;HEIGHT:0.2
;TYPE:Inner wall
G1 X19 Y1 Z0.4 F3240
G1 X19 Y19 Z0.4 E14.40002 F3240
G1 X1 Y19 Z0.4 E14.40002 F3240
G1 X1 Y1 Z0.4 E14.40002 F3240
G1 X19 Y1 Z0.4 E14.40002 F3240
G1 X19.4 Y0.6 Z0.4 F3240
G1 X19.4 Y19.4 Z0.4 E15.04004 F3240
G1 X0.6 Y19.4 Z0.4 E15.04004 F3240
G1 X0.6 Y0.6 Z0.4 E15.04004 F3240
G1 X19.4 Y0.6 Z0.4 E15.04004 F3240
;TYPE:Outer wall
G1 X19.8 Y0.2 Z0.4 F2160
G1 X19.8 Y19.8 Z0.4 E15.68005 F2160
G1 X0.2 Y19.8 Z0.4 E15.68005 F2160
G1 X0.2 Y0.2 Z0.4 E15.68005 F2160
G1 X19.8 Y0.2 Z0.4 E15.68005 F2160
;TYPE:Bottom surface
G1 X2.6 Y1.4 Z0.4 F6000
G1 X2.6 Y18.6 Z0.4 E6.88000 F6000
G1 X1.886 Y14.061 Z0.4 F6000
G1 X2.414 Y14.444 Z0.4 E0.26074 F6000
G1 X2.585 Y14.727 Z0.4 E0.13257 F6000
G1 X2.63 Y15.138 Z0.4 E0.16528 F6000
G1 X2.542 Y16.137 Z0.4 E0.40088 F6000
G1 X2.725 Y16.864 Z0.4 E0.30005 F6000
G1 X3.107 Y17.392 Z0.4 E0.26074 F6000
G1 X3.391 Y17.563 Z0.4 E0.13257 F6000
G1 X3.802 Y17.608 Z0.4 E0.16528 F6000
G1 X4.8 Y17.52 Z0.4 E0.40088 F6000
G1 X5.528 Y17.703 Z0.4 E0.30005 F6000
G1 X6.055 Y18.085 Z0.4 E0.26074 F6000
G1 X6.227 Y18.369 Z0.4 E0.13257 F6000
G1 X1.631 Y11.585 Z0.4 F6000
G1 X2.63 Y11.497 Z0.4 E0.40088 F6000
G1 X3.04 Y11.541 Z0.4 E0.16528 F6000
G1 X3.324 Y11.712 Z0.4 E0.13257 F6000
G1 X3.707 Y12.24 Z0.4 E0.26074 F6000
G1 X3.89 Y12.968 Z0.4 E0.30005 F6000
G1 X3.802 Y13.966 Z0.4 E0.40088 F6000
G1 X3.846 Y14.377 Z0.4 E0.16528 F6000
G1 X4.018 Y14.661 Z0.4 E0.13257 F6000
G1 X4.545 Y15.043 Z0.4 E0.26074 F6000
G1 X5.273 Y15.226 Z0.4 E0.30005 F6000
G1 X6.271 Y15.138 Z0.4 E0.40088 F6000
G1 X6.682 Y15.183 Z0.4 E0.16528 F6000
G1 X6.966 Y15.354 Z0.4 E0.13257 F6000
G1 X7.348 Y15.882 Z0.4 E0.26074 F6000
G1 X7.532 Y16.609 Z0.4 E0.30005 F6000
G1 X7.444 Y17.608 Z0.4 E0.40088 F6000
G1 X7.488 Y18.019 Z0.4 E0.16528 F6000
