; HEADER_BLOCK_START
; total layer number: 99
; filament_diameter: 1.75
; filament_density: 1.24
; max_z_height: 19.80
; filament: 1
; HEADER_BLOCK_END
; outer_wall_line_width = 0.42
; inner_wall_line_width = 0.45
; sparse_infill_line_width = 0.45
; top_surface_line_width = 0.42
; support_line_width = 0.35
M83
;LAYER_CHANGE
;Z:0.2
;HEIGHT:0.2
;TYPE:Custom
G1 X-2.8 Y-2.8 Z0.2 F3600
G1 X22.8 Y-2.8 Z0.2 E10.24000 F3600
G1 X22.8 Y22.8 Z0.2 E10.24000 F3600
G1 X-2.8 Y22.8 Z0.2 E10.24000 F3600
G1 X-2.8 Y-2.8 Z0.2 E10.24000 F3600
G1 X-3.2 Y-3.2 Z0.2 F3600
G1 X23.2 Y-3.2 Z0.2 E10.56000 F3600
G1 X23.2 Y23.2 Z0.2 E10.56000 F3600
G1 X-3.2 Y23.2 Z0.2 E10.56000 F3600
G1 X-3.2 Y-3.2 Z0.2 E10.56000 F3600
G1 X-3.6 Y-3.6 Z0.2 F3600
G1 X23.6 Y-3.6 Z0.2 E10.88000 F3600
G1 X23.6 Y23.6 Z0.2 E10.88000 F3600
G1 X-3.6 Y23.6 Z0.2 E10.88000 F3600
G1 X-3.6 Y-3.6 Z0.2 E10.88000 F3600
G1 X-4 Y-4 Z0.2 F3600
G1 X24 Y-4 Z0.2 E11.20000 F3600
G1 X24 Y24 Z0.2 E11.20000 F3600
G1 X-4 Y24 Z0.2 E11.20000 F3600
G1 X-4 Y-4 Z0.2 E11.20000 F3600
G1 X-4.4 Y-4.4 Z0.2 F3600
G1 X24.4 Y-4.4 Z0.2 E11.52000 F3600
G1 X24.4 Y24.4 Z0.2 E11.52000 F3600
G1 X-4.4 Y24.4 Z0.2 E11.52000 F3600
G1 X-4.4 Y-4.4 Z0.2 E11.52000 F3600
G1 X-4.8 Y-4.8 Z0.2 F3600
G1 X24.8 Y-4.8 Z0.2 E11.84000 F3600
G1 X24.8 Y24.8 Z0.2 E11.84000 F3600
G1 X-4.8 Y24.8 Z0.2 E11.84000 F3600
G1 X-4.8 Y-4.8 Z0.2 E11.84001 F3600
G1 X-7.8 Y-7.8 Z0.2 F3600
G1 X27.8 Y-7.8 Z0.2 E14.23999 F3600
G1 X27.8 Y27.8 Z0.2 E14.23999 F3600
G1 X-7.8 Y27.8 Z0.2 E14.23999 F3600
G1 X-7.8 Y-7.8 Z0.2 E14.23999 F3600
G1 X-7.4 Y-7.4 Z0.2 F3600
G1 X27.4 Y-7.4 Z0.2 E13.92001 F3600
G1 X27.4 Y27.4 Z0.2 E13.92001 F3600
G1 X-7.4 Y27.4 Z0.2 E13.92001 F3600
G1 X-7.4 Y-7.4 Z0.2 E13.92001 F3600
G1 X-7 Y-7 Z0.2 F3600
G1 X27 Y-7 Z0.2 E13.60001 F3600
G1 X27 Y27 Z0.2 E13.60001 F3600
G1 X-7 Y27 Z0.2 E13.60001 F3600
G1 X-7 Y-7 Z0.2 E13.60001 F3600
G1 X-6.6 Y-6.6 Z0.2 F3600
G1 X26.6 Y-6.6 Z0.2 E13.28000 F3600
G1 X26.6 Y26.6 Z0.2 E13.28000 F3600
G1 X-6.6 Y26.6 Z0.2 E13.28000 F3600
G1 X-6.6 Y-6.6 Z0.2 E13.28000 F3600
G1 X-6.2 Y-6.2 Z0.2 F3600
G1 X26.2 Y-6.2 Z0.2 E12.95999 F3600
G1 X26.2 Y26.2 Z0.2 E12.95999 F3600
G1 X-6.2 Y26.2 Z0.2 E12.95999 F3600
G1 X-6.2 Y-6.2 Z0.2 E12.96002 F3600
G1 X-5.8 Y-5.8 Z0.2 F3600
G1 X25.8 Y-5.8 Z0.2 E12.64001 F3600
G1 X25.8 Y25.8 Z0.2 E12.64001 F3600
G1 X-5.8 Y25.8 Z0.2 E12.64001 F3600
G1 X-5.8 Y-5.8 Z0.2 E12.64001 F3600
G1 X-5.4 Y-5.4 Z0.2 F3600
G1 X25.4 Y-5.4 Z0.2 E12.32001 F3600
G1 X25.4 Y25.4 Z0.2 E12.32001 F3600
G1 X-5.4 Y25.4 Z0.2 E12.32001 F3600
G1 X-5.4 Y-5.4 Z0.2 E12.32001 F3600
G1 X-5 Y-5 Z0.2 F3600
G1 X25 Y-5 Z0.2 E12.00000 F3600
G1 X25 Y25 Z0.2 E12.00000 F3600
G1 X-5 Y25 Z0.2 E12.00000 F3600
G1 X-5 Y-5 Z0.2 E12.00000 F3600
G1 X-4.6 Y-4.6 Z0.2 F3600
G1 X24.6 Y-4.6 Z0.2 E11.67999 F3600
G1 X24.6 Y24.6 Z0.2 E11.67999 F3600
G1 X-4.6 Y24.6 Z0.2 E11.67999 F3600
G1 X-4.6 Y-4.6 Z0.2 E11.67999 F3600
G1 X-4.2 Y-4.2 Z0.2 F3600
G1 X24.2 Y-4.2 Z0.2 E11.35999 F3600
G1 X24.2 Y24.2 Z0.2 E11.35999 F3600
G1 X-4.2 Y24.2 Z0.2 E11.35999 F3600
G1 X-4.2 Y-4.2 Z0.2 E11.35999 F3600
G1 X-3.8 Y-3.8 Z0.2 F3600
G1 X23.8 Y-3.8 Z0.2 E11.03998 F3600
G1 X23.8 Y23.8 Z0.2 E11.03998 F3600
G1 X-3.8 Y23.8 Z0.2 E11.03998 F3600
G1 X-3.8 Y-3.8 Z0.2 E11.03998 F3600
G1 X-3.4 Y-3.4 Z0.2 F3600
G1 X23.4 Y-3.4 Z0.2 E10.71997 F3600
G1 X23.4 Y23.4 Z0.2 E10.71997 F3600
G1 X-3.4 Y23.4 Z0.2 E10.71997 F3600
G1 X-3.4 Y-3.4 Z0.2 E10.71997 F3600
G1 X-3 Y-3 Z0.2 F3600
G1 X23 Y-3 Z0.2 E10.40002 F3600
G1 X23 Y23 Z0.2 E10.40002 F3600
G1 X-3 Y23 Z0.2 E10.40002 F3600
G1 X-3 Y-3 Z0.2 E10.40002 F3600
G1 X-2.6 Y-2.6 Z0.2 F3600
G1 X22.6 Y-2.6 Z0.2 E10.08002 F3600
G1 X22.6 Y22.6 Z0.2 E10.08002 F3600
G1 X-2.6 Y22.6 Z0.2 E10.08002 F3600
G1 X-2.6 Y-2.6 Z0.2 E10.08002 F3600
G1 X-2.2 Y-2.2 Z0.2 F3600
G1 X22.2 Y-2.2 Z0.2 E9.76001 F3600
G1 X22.2 Y22.2 Z0.2 E9.76001 F3600
G1 X-2.2 Y22.2 Z0.2 E9.76001 F3600
G1 X-2.2 Y-2.2 Z0.2 E9.76001 F3600
G1 X-1.8 Y-1.8 Z0.2 F3600
G1 X21.8 Y-1.8 Z0.2 E9.44000 F3600
G1 X21.8 Y21.8 Z0.2 E9.44000 F3600
G1 X-1.8 Y21.8 Z0.2 E9.44000 F3600
G1 X-1.8 Y-1.8 Z0.2 E9.44000 F3600
; path-optimization layer 0 regions=1 entities=2
G1 X-1.4 Y-1.4 Z0.2 F3600
G1 X21.4 Y-1.4 Z0.2 E9.12006 F3600
G1 X21.4 Y21.4 Z0.2 E9.12000 F3600
G1 X-1.4 Y21.4 Z0.2 E9.12000 F3600
G1 X-1.4 Y-1.4 Z0.2 E9.12000 F3600
G1 X-1 Y-1 Z0.2 F3600
G1 X21 Y-1 Z0.2 E8.80005 F3600
G1 X21 Y21 Z0.2 E8.80005 F3600
G1 X-1 Y21 Z0.2 E8.80005 F3600
G1 X-1 Y-1 Z0.2 E8.80005 F3600
G1 X-0.6 Y-0.6 Z0.2 F3600
G1 X20.6 Y-0.6 Z0.2 E8.47998 F3600
G1 X20.6 Y20.6 Z0.2 E8.47998 F3600
G1 X-0.6 Y20.6 Z0.2 E8.47998 F3600
G1 X-0.6 Y-0.6 Z0.2 E8.47998 F3600
G1 X-0.2 Y-0.2 Z0.2 F3600
G1 X20.2 Y-0.2 Z0.2 E8.16003 F3600
G1 X20.2 Y20.2 Z0.2 E8.16003 F3600
G1 X-0.2 Y20.2 Z0.2 E8.16003 F3600
G1 X-0.2 Y-0.2 Z0.2 E8.16003 F3600
;TYPE:Outer wall
G1 X19.8 Y0.2 Z0.2 F3600
G1 X19.8 Y19.8 Z0.2 E15.68005 F3600
G1 X0.2 Y19.8 Z0.2 E15.68005 F3600
G1 X0.2 Y0.2 Z0.2 E15.68005 F3600
G1 X19.8 Y0.2 Z0.2 E15.68005 F3600
;TYPE:Inner wall
G1 X19.4 Y0.6 Z0.2 F3600
G1 X19.4 Y19.4 Z0.2 E15.04004 F3600
G1 X0.6 Y19.4 Z0.2 E15.04004 F3600
G1 X0.6 Y0.6 Z0.2 E15.04004 F3600
G1 X19.4 Y0.6 Z0.2 E15.04004 F3600
;TYPE:Bottom surface
G1 X1.63 Y1.633 Z0.2 F6000
G1 X1.903 Y2.27 Z0.2 E0.27722 F6000
G1 X2.375 Y2.709 Z0.2 E0.25769 F6000
G1 X2.707 Y2.832 Z0.2 E0.14185 F6000
G1 X3.132 Y2.862 Z0.2 E0.17029 F6000
G1 X4.015 Y2.89 Z0.2 E0.35352 F6000
G1 X4.652 Y3.163 Z0.2 E0.27722 F6000
G1 X5.091 Y3.634 Z0.2 E0.25769 F6000
G1 X5.214 Y3.967 Z0.2 E0.14185 F6000
G1 X5.244 Y4.392 Z0.2 E0.17029 F6000
G1 X5.271 Y5.275 Z0.2 E0.35352 F6000
G1 X5.545 Y5.912 Z0.2 E0.27722 F6000
G1 X6.016 Y6.351 Z0.2 E0.25769 F6000
G1 X6.349 Y6.473 Z0.2 E0.14185 F6000
G1 X6.773 Y6.504 Z0.2 E0.17029 F6000
G1 X7.657 Y6.531 Z0.2 E0.35352 F6000
G1 X8.294 Y6.805 Z0.2 E0.27722 F6000
G1 X8.733 Y7.276 Z0.2 E0.25769 F6000
G1 X8.855 Y7.609 Z0.2 E0.14185 F6000
G1 X8.886 Y8.033 Z0.2 E0.17029 F6000
G1 X8.913 Y8.917 Z0.2 E0.35352 F6000
G1 X9.187 Y9.553 Z0.2 E0.27722 F6000
G1 X9.658 Y9.993 Z0.2 E0.25769 F6000
G1 X9.991 Y10.115 Z0.2 E0.14185 F6000
G1 X10.415 Y10.146 Z0.2 E0.17029 F6000
G1 X11.298 Y10.173 Z0.2 E0.35352 F6000
G1 X11.935 Y10.447 Z0.2 E0.27722 F6000
G1 X12.374 Y10.918 Z0.2 E0.25769 F6000
G1 X12.497 Y11.251 Z0.2 E0.14185 F6000
G1 X12.528 Y11.675 Z0.2 E0.17029 F6000
G1 X12.555 Y12.558 Z0.2 E0.35352 F6000
G1 X12.828 Y13.195 Z0.2 E0.27722 F6000
G1 X13.3 Y13.634 Z0.2 E0.25769 F6000
G1 X13.632 Y13.757 Z0.2 E0.14185 F6000
G1 X14.057 Y13.788 Z0.2 E0.17029 F6000
G1 X14.94 Y13.815 Z0.2 E0.35352 F6000
G1 X15.577 Y14.088 Z0.2 E0.27722 F6000
G1 X16.016 Y14.56 Z0.2 E0.25769 F6000
G1 X16.139 Y14.892 Z0.2 E0.14185 F6000
G1 X16.169 Y15.317 Z0.2 E0.17029 F6000
G1 X16.197 Y16.2 Z0.2 E0.35352 F6000
G1 X16.47 Y16.837 Z0.2 E0.27722 F6000
G1 X16.941 Y17.276 Z0.2 E0.25769 F6000
G1 X17.274 Y17.399 Z0.2 E0.14185 F6000
G1 X17.699 Y17.429 Z0.2 E0.17029 F6000
G1 X18.582 Y17.456 Z0.2 E0.35352 F6000
G1 X16.197 Y1.633 Z0.2 F6000
G1 X16.47 Y2.27 Z0.2 E0.27722 F6000
G1 X16.941 Y2.709 Z0.2 E0.25769 F6000
G1 X17.274 Y2.832 Z0.2 E0.14185 F6000
G1 X17.699 Y2.862 Z0.2 E0.17029 F6000
G1 X18.582 Y2.89 Z0.2 E0.35352 F6000
G1 X18.649 Y1.002 Z0.2 F6000
G1 X19.104 Y1.457 Z0.2 E0.25757 F6000
G1 X13.285 Y0.903 Z0.2 F6000
G1 X13.756 Y1.342 Z0.2 E0.25769 F6000
G1 X14.03 Y1.979 Z0.2 E0.27722 F6000
G1 X14.057 Y2.862 Z0.2 E0.35352 F6000
G1 X14.088 Y3.287 Z0.2 E0.17029 F6000
G1 X14.21 Y3.62 Z0.2 E0.14185 F6000
G1 X14.649 Y4.091 Z0.2 E0.25769 F6000
G1 X15.286 Y4.364 Z0.2 E0.27722 F6000
G1 X16.169 Y4.392 Z0.2 E0.35352 F6000
G1 X16.594 Y4.422 Z0.2 E0.17029 F6000
G1 X16.927 Y4.545 Z0.2 E0.14185 F6000
G1 X17.398 Y4.984 Z0.2 E0.25769 F6000
G1 X17.671 Y5.621 Z0.2 E0.27722 F6000
G1 X17.699 Y6.504 Z0.2 E0.35352 F6000
G1 X17.729 Y6.929 Z0.2 E0.17029 F6000
G1 X17.852 Y7.261 Z0.2 E0.14185 F6000
G1 X18.291 Y7.733 Z0.2 E0.25769 F6000
G1 X18.928 Y8.006 Z0.2 E0.27722 F6000
G1 X8.913 Y1.633 Z0.2 F6000
G1 X9.187 Y2.27 Z0.2 E0.27722 F6000
G1 X9.658 Y2.709 Z0.2 E0.25769 F6000
G1 X9.991 Y2.832 Z0.2 E0.14185 F6000
G1 X10.415 Y2.862 Z0.2 E0.17029 F6000
G1 X11.298 Y2.89 Z0.2 E0.35352 F6000
G1 X11.935 Y3.163 Z0.2 E0.27722 F6000
G1 X12.374 Y3.634 Z0.2 E0.25769 F6000
G1 X12.497 Y3.967 Z0.2 E0.14185 F6000
G1 X12.528 Y4.392 Z0.2 E0.17029 F6000
G1 X12.555 Y5.275 Z0.2 E0.35352 F6000
G1 X12.828 Y5.912 Z0.2 E0.27722 F6000
G1 X13.3 Y6.351 Z0.2 E0.25769 F6000
G1 X13.632 Y6.473 Z0.2 E0.14185 F6000
G1 X14.057 Y6.504 Z0.2 E0.17029 F6000
G1 X14.94 Y6.531 Z0.2 E0.35352 F6000
G1 X15.577 Y6.805 Z0.2 E0.27722 F6000
G1 X16.016 Y7.276 Z0.2 E0.25769 F6000
G1 X16.139 Y7.609 Z0.2 E0.14185 F6000
G1 X16.169 Y8.033 Z0.2 E0.17029 F6000
G1 X16.197 Y8.917 Z0.2 E0.35352 F6000
G1 X16.47 Y9.553 Z0.2 E0.27722 F6000
G1 X16.941 Y9.993 Z0.2 E0.25769 F6000
G1 X17.274 Y10.115 Z0.2 E0.14185 F6000
G1 X17.699 Y10.146 Z0.2 E0.17029 F6000
G1 X18.582 Y10.173 Z0.2 E0.35352 F6000
G1 X6.001 Y0.903 Z0.2 F6000
G1 X6.473 Y1.342 Z0.2 E0.25769 F6000
G1 X6.746 Y1.979 Z0.2 E0.27722 F6000
G1 X6.773 Y2.862 Z0.2 E0.35352 F6000
G1 X6.804 Y3.287 Z0.2 E0.17029 F6000
G1 X6.927 Y3.62 Z0.2 E0.14185 F6000
G1 X7.366 Y4.091 Z0.2 E0.25769 F6000
G1 X8.003 Y4.364 Z0.2 E0.27722 F6000
G1 X8.886 Y4.392 Z0.2 E0.35352 F6000
G1 X9.31 Y4.422 Z0.2 E0.17029 F6000
G1 X9.643 Y4.545 Z0.2 E0.14185 F6000
G1 X10.115 Y4.984 Z0.2 E0.25769 F6000
G1 X10.388 Y5.621 Z0.2 E0.27722 F6000
G1 X10.415 Y6.504 Z0.2 E0.35352 F6000
G1 X10.446 Y6.929 Z0.2 E0.17029 F6000
G1 X10.568 Y7.261 Z0.2 E0.14185 F6000
G1 X11.008 Y7.733 Z0.2 E0.25769 F6000
G1 X11.644 Y8.006 Z0.2 E0.27722 F6000
G1 X12.528 Y8.033 Z0.2 E0.35352 F6000
G1 X12.952 Y8.064 Z0.2 E0.17029 F6000
G1 X13.285 Y8.187 Z0.2 E0.14185 F6000
G1 X13.756 Y8.626 Z0.2 E0.25769 F6000
G1 X14.03 Y9.263 Z0.2 E0.27722 F6000
G1 X14.057 Y10.146 Z0.2 E0.35352 F6000
G1 X14.088 Y10.57 Z0.2 E0.17029 F6000
G1 X14.21 Y10.903 Z0.2 E0.14185 F6000
G1 X14.649 Y11.374 Z0.2 E0.25769 F6000
G1 X15.286 Y11.648 Z0.2 E0.27722 F6000
G1 X16.169 Y11.675 Z0.2 E0.35352 F6000
G1 X16.594 Y11.706 Z0.2 E0.17029 F6000
G1 X16.927 Y11.828 Z0.2 E0.14185 F6000
G1 X17.398 Y12.267 Z0.2 E0.25769 F6000
G1 X17.671 Y12.904 Z0.2 E0.27722 F6000
G1 X17.699 Y13.788 Z0.2 E0.35352 F6000
G1 X17.729 Y14.212 Z0.2 E0.17029 F6000
G1 X17.852 Y14.545 Z0.2 E0.14185 F6000
G1 X18.291 Y15.016 Z0.2 E0.25769 F6000
G1 X18.928 Y15.29 Z0.2 E0.27722 F6000
G1 X1.603 Y11.675 Z0.2 F6000
G1 X2.027 Y11.706 Z0.2 E0.17029 F6000
G1 X2.36 Y11.828 Z0.2 E0.14185 F6000
G1 X2.831 Y12.267 Z0.2 E0.25769 F6000
G1 X3.105 Y12.904 Z0.2 E0.27722 F6000
G1 X3.132 Y13.788 Z0.2 E0.35352 F6000
G1 X3.162 Y14.212 Z0.2 E0.17029 F6000
G1 X3.285 Y14.545 Z0.2 E0.14185 F6000
G1 X3.724 Y15.016 Z0.2 E0.25769 F6000
G1 X4.361 Y15.29 Z0.2 E0.27722 F6000
G1 X5.244 Y15.317 Z0.2 E0.35352 F6000
G1 X5.669 Y15.347 Z0.2 E0.17029 F6000
G1 X6.001 Y15.47 Z0.2 E0.14185 F6000
G1 X6.473 Y15.909 Z0.2 E0.25769 F6000
G1 X6.746 Y16.546 Z0.2 E0.27722 F6000
G1 X6.773 Y17.429 Z0.2 E0.35352 F6000
G1 X6.804 Y17.854 Z0.2 E0.17029 F6000
G1 X6.927 Y18.186 Z0.2 E0.14185 F6000
G1 X7.366 Y18.658 Z0.2 E0.25769 F6000
G1 X8.003 Y18.931 Z0.2 E0.27722 F6000
G1 X8.886 Y18.958 Z0.2 E0.35352 F6000
G1 X9.31 Y18.989 Z0.2 E0.17029 F6000
G1 X9.643 Y19.112 Z0.2 E0.14185 F6000
G1 X1.002 Y18.649 Z0.2 F6000
G1 X1.603 Y18.958 Z0.2 E0.27039 F6000
G1 X2.027 Y18.989 Z0.2 E0.17029 F6000
G1 X2.36 Y19.112 Z0.2 E0.14185 F6000
G1 X0.8 Y18.8 Z0.2 F6000
G1 X19.2 Y18.8 Z0.2 E7.35999 F6000
G1 X0.8 Y16.8 Z0.2 F6000
G1 X19.2 Y16.8 Z0.2 E7.35999 F6000
G1 X1.01 Y14.088 Z0.2 F6000
G1 X1.449 Y14.56 Z0.2 E0.25769 F6000
G1 X1.572 Y14.892 Z0.2 E0.14185 F6000
G1 X1.603 Y15.317 Z0.2 E0.17029 F6000
G1 X1.63 Y16.2 Z0.2 E0.35352 F6000
G1 X1.903 Y16.837 Z0.2 E0.27722 F6000
G1 X2.375 Y17.276 Z0.2 E0.25769 F6000
G1 X2.707 Y17.399 Z0.2 E0.14185 F6000
G1 X3.132 Y17.429 Z0.2 E0.17029 F6000
G1 X4.015 Y17.456 Z0.2 E0.35352 F6000
G1 X4.652 Y17.73 Z0.2 E0.27722 F6000
G1 X5.091 Y18.201 Z0.2 E0.25769 F6000
G1 X5.214 Y18.534 Z0.2 E0.14185 F6000
G1 X5.244 Y18.958 Z0.2 E0.17029 F6000
G1 X0.8 Y14.8 Z0.2 F6000
G1 X19.2 Y14.8 Z0.2 E7.35999 F6000
G1 X0.8 Y12.8 Z0.2 F6000
G1 X19.2 Y12.8 Z0.2 E7.35999 F6000
G1 X0.8 Y10.8 Z0.2 F6000
G1 X19.2 Y10.8 Z0.2 E7.35999 F6000
G1 X0.8 Y8.8 Z0.2 F6000
G1 X19.2 Y8.8 Z0.2 E7.35999 F6000
G1 X1.603 Y4.392 Z0.2 F6000
G1 X2.027 Y4.422 Z0.2 E0.17029 F6000
G1 X2.36 Y4.545 Z0.2 E0.14185 F6000
G1 X2.831 Y4.984 Z0.2 E0.25769 F6000
G1 X3.105 Y5.621 Z0.2 E0.27722 F6000
G1 X3.132 Y6.504 Z0.2 E0.35352 F6000
G1 X3.162 Y6.929 Z0.2 E0.17029 F6000
G1 X3.285 Y7.261 Z0.2 E0.14185 F6000
G1 X3.724 Y7.733 Z0.2 E0.25769 F6000
G1 X4.361 Y8.006 Z0.2 E0.27722 F6000
G1 X5.244 Y8.033 Z0.2 E0.35352 F6000
G1 X5.669 Y8.064 Z0.2 E0.17029 F6000
G1 X6.001 Y8.187 Z0.2 E0.14185 F6000
G1 X6.473 Y8.626 Z0.2 E0.25769 F6000
G1 X6.746 Y9.263 Z0.2 E0.27722 F6000
G1 X6.773 Y10.146 Z0.2 E0.35352 F6000
G1 X6.804 Y10.57 Z0.2 E0.17029 F6000
G1 X6.927 Y10.903 Z0.2 E0.14185 F6000
G1 X7.366 Y11.374 Z0.2 E0.25769 F6000
G1 X8.003 Y11.648 Z0.2 E0.27722 F6000
G1 X8.886 Y11.675 Z0.2 E0.35352 F6000
G1 X9.31 Y11.706 Z0.2 E0.17029 F6000
G1 X9.643 Y11.828 Z0.2 E0.14185 F6000
G1 X10.115 Y12.267 Z0.2 E0.25769 F6000
G1 X10.388 Y12.904 Z0.2 E0.27722 F6000
G1 X10.415 Y13.788 Z0.2 E0.35352 F6000
G1 X10.446 Y14.212 Z0.2 E0.17029 F6000
G1 X10.568 Y14.545 Z0.2 E0.14185 F6000
G1 X11.008 Y15.016 Z0.2 E0.25769 F6000
G1 X11.644 Y15.29 Z0.2 E0.27722 F6000
G1 X12.528 Y15.317 Z0.2 E0.35352 F6000
G1 X12.952 Y15.347 Z0.2 E0.17029 F6000
G1 X13.285 Y15.47 Z0.2 E0.14185 F6000
G1 X13.756 Y15.909 Z0.2 E0.25769 F6000
G1 X14.03 Y16.546 Z0.2 E0.27722 F6000
G1 X14.057 Y17.429 Z0.2 E0.35352 F6000
G1 X14.088 Y17.854 Z0.2 E0.17029 F6000
G1 X14.21 Y18.186 Z0.2 E0.14185 F6000
G1 X14.649 Y18.658 Z0.2 E0.25769 F6000
G1 X15.286 Y18.931 Z0.2 E0.27722 F6000
G1 X16.169 Y18.958 Z0.2 E0.35352 F6000
G1 X16.594 Y18.989 Z0.2 E0.17029 F6000
G1 X16.927 Y19.112 Z0.2 E0.14185 F6000
G1 X1.01 Y6.805 Z0.2 F6000
G1 X1.449 Y7.276 Z0.2 E0.25769 F6000
G1 X1.572 Y7.609 Z0.2 E0.14185 F6000
G1 X1.603 Y8.033 Z0.2 E0.17029 F6000
G1 X1.63 Y8.917 Z0.2 E0.35352 F6000
G1 X1.903 Y9.553 Z0.2 E0.27722 F6000
G1 X2.375 Y9.993 Z0.2 E0.25769 F6000
G1 X2.707 Y10.115 Z0.2 E0.14185 F6000
G1 X3.132 Y10.146 Z0.2 E0.17029 F6000
G1 X4.015 Y10.173 Z0.2 E0.35352 F6000
G1 X4.652 Y10.447 Z0.2 E0.27722 F6000
G1 X5.091 Y10.918 Z0.2 E0.25769 F6000
G1 X5.214 Y11.251 Z0.2 E0.14185 F6000
G1 X5.244 Y11.675 Z0.2 E0.17029 F6000
G1 X5.271 Y12.558 Z0.2 E0.35352 F6000
G1 X5.545 Y13.195 Z0.2 E0.27722 F6000
G1 X6.016 Y13.634 Z0.2 E0.25769 F6000
G1 X6.349 Y13.757 Z0.2 E0.14185 F6000
G1 X6.773 Y13.788 Z0.2 E0.17029 F6000
G1 X7.657 Y13.815 Z0.2 E0.35352 F6000
G1 X8.294 Y14.088 Z0.2 E0.27722 F6000
G1 X8.733 Y14.56 Z0.2 E0.25769 F6000
G1 X8.855 Y14.892 Z0.2 E0.14185 F6000
G1 X8.886 Y15.317 Z0.2 E0.17029 F6000
G1 X8.913 Y16.2 Z0.2 E0.35352 F6000
G1 X9.187 Y16.837 Z0.2 E0.27722 F6000
G1 X9.658 Y17.276 Z0.2 E0.25769 F6000
G1 X9.991 Y17.399 Z0.2 E0.14185 F6000
G1 X10.415 Y17.429 Z0.2 E0.17029 F6000
G1 X11.298 Y17.456 Z0.2 E0.35352 F6000
G1 X11.935 Y17.73 Z0.2 E0.27722 F6000
G1 X12.374 Y18.201 Z0.2 E0.25769 F6000
G1 X12.497 Y18.534 Z0.2 E0.14185 F6000
G1 X12.528 Y18.958 Z0.2 E0.17029 F6000
G1 X0.8 Y6.8 Z0.2 F6000
G1 X19.2 Y6.8 Z0.2 E7.35999 F6000
G1 X0.8 Y4.8 Z0.2 F6000
G1 X19.2 Y4.8 Z0.2 E7.35999 F6000
G1 X0.8 Y2.8 Z0.2 F6000
G1 X19.2 Y2.8 Z0.2 E7.35999 F6000
;LAYER_CHANGE
;Z:0.4
;HEIGHT:0.2
;TYPE:Inner wall
G1 X19.4 Y0.6 Z0.4 F3600
G1 X19.4 Y19.4 Z0.4 E15.04004 F3600
G1 X0.6 Y19.4 Z0.4 E15.04004 F3600
G1 X0.6 Y0.6 Z0.4 E15.04004 F3600
G1 X19.4 Y0.6 Z0.4 E15.04004 F3600
;TYPE:Outer wall
G1 X19.8 Y0.2 Z0.4 F3600
G1 X19.8 Y19.8 Z0.4 E15.68005 F3600
G1 X0.2 Y19.8 Z0.4 E15.68005 F3600
G1 X0.2 Y0.2 Z0.4 E15.68005 F3600
G1 X19.8 Y0.2 Z0.4 E15.68005 F3600
;TYPE:Bottom surface
G1 X1.2 Y0.8 Z0.4 F6000
G1 X1.2 Y19.2 Z0.4 E7.35999 F6000
G1 X1.002 Y18.649 Z0.4 F6000
G1 X1.781 Y18.78 Z0.4 E0.31616 F6000
G1 X2.192 Y18.824 Z0.4 E0.16528 F6000
G1 X2.476 Y18.996 Z0.4 E0.13257 F6000
G1 X1.037 Y14.061 Z0.4 F6000
G1 X1.565 Y14.444 Z0.4 E0.26074 F6000
G1 X1.737 Y14.727 Z0.4 E0.13257 F6000
G1 X1.781 Y15.138 Z0.4 E0.16528 F6000
G1 X1.693 Y16.137 Z0.4 E0.40088 F6000
G1 X1.876 Y16.864 Z0.4 E0.30005 F6000
