; HEADER_BLOCK_START
; total layer number: 99
; filament_diameter: 1.75
; filament_density: 1.24
; max_z_height: 19.80
; filament: 1
; HEADER_BLOCK_END
; outer_wall_line_width = 0.42
; inner_wall_line_width = 0.45
; sparse_infill_line_width = 0.45
; top_surface_line_width = 0.42
; support_line_width = 0.35
M83
;LAYER_CHANGE
;Z:0.2
;HEIGHT:0.2
;TYPE:Custom
G1 X-2.8 Y-2.8 Z0.2 F3600
G1 X22.908 Y-2.8 Z0.2 E10.28330 F3600
G1 X22.908 Y22.842 Z0.2 E10.25669 F3600
G1 X-2.8 Y22.842 Z0.2 E10.28330 F3600
G1 X-2.8 Y-2.8 Z0.2 E10.25669 F3600
G1 X-3.2 Y-3.2 Z0.2 F3600
G1 X23.308 Y-3.2 Z0.2 E10.60330 F3600
G1 X23.308 Y23.242 Z0.2 E10.57669 F3600
G1 X-3.2 Y23.242 Z0.2 E10.60330 F3600
G1 X-3.2 Y-3.2 Z0.2 E10.57669 F3600
G1 X-3.6 Y-3.6 Z0.2 F3600
G1 X23.708 Y-3.6 Z0.2 E10.92330 F3600
G1 X23.708 Y23.642 Z0.2 E10.89669 F3600
G1 X-3.6 Y23.642 Z0.2 E10.92330 F3600
G1 X-3.6 Y-3.6 Z0.2 E10.89669 F3600
G1 X-4 Y-4 Z0.2 F3600
G1 X24.108 Y-4 Z0.2 E11.24330 F3600
G1 X24.108 Y24.042 Z0.2 E11.21669 F3600
G1 X-4 Y24.042 Z0.2 E11.24330 F3600
G1 X-4 Y-4 Z0.2 E11.21669 F3600
G1 X-4.4 Y-4.4 Z0.2 F3600
G1 X24.508 Y-4.4 Z0.2 E11.56331 F3600
G1 X24.508 Y24.442 Z0.2 E11.53670 F3600
G1 X-4.4 Y24.442 Z0.2 E11.56331 F3600
G1 X-4.4 Y-4.4 Z0.2 E11.53670 F3600
G1 X-4.8 Y-4.8 Z0.2 F3600
G1 X24.908 Y-4.8 Z0.2 E11.88330 F3600
G1 X24.908 Y24.842 Z0.2 E11.85669 F3600
G1 X-4.8 Y24.842 Z0.2 E11.88330 F3600
G1 X-4.8 Y-4.8 Z0.2 E11.85669 F3600
G1 X-7.8 Y-7.8 Z0.2 F3600
G1 X27.908 Y-7.8 Z0.2 E14.28329 F3600
G1 X27.908 Y27.842 Z0.2 E14.25668 F3600
G1 X-7.8 Y27.842 Z0.2 E14.28329 F3600
G1 X-7.8 Y-7.8 Z0.2 E14.25668 F3600
G1 X-7.4 Y-7.4 Z0.2 F3600
G1 X27.508 Y-7.4 Z0.2 E13.96332 F3600
G1 X27.508 Y27.442 Z0.2 E13.93668 F3600
G1 X-7.4 Y27.442 Z0.2 E13.96329 F3600
G1 X-7.4 Y-7.4 Z0.2 E13.93668 F3600
G1 X-7 Y-7 Z0.2 F3600
G1 X27.108 Y-7 Z0.2 E13.64331 F3600
G1 X27.108 Y27.042 Z0.2 E13.61670 F3600
G1 X-7 Y27.042 Z0.2 E13.64331 F3600
G1 X-7 Y-7 Z0.2 E13.61670 F3600
G1 X-6.6 Y-6.6 Z0.2 F3600
G1 X26.708 Y-6.6 Z0.2 E13.32330 F3600
G1 X26.708 Y26.642 Z0.2 E13.29669 F3600
G1 X-6.6 Y26.642 Z0.2 E13.32330 F3600
G1 X-6.6 Y-6.6 Z0.2 E13.29669 F3600
G1 X-6.2 Y-6.2 Z0.2 F3600
G1 X26.308 Y-6.2 Z0.2 E13.00330 F3600
G1 X26.308 Y26.242 Z0.2 E12.97672 F3600
G1 X-6.2 Y26.242 Z0.2 E13.00330 F3600
G1 X-6.2 Y-6.2 Z0.2 E12.97668 F3600
G1 X-5.8 Y-5.8 Z0.2 F3600
G1 X25.908 Y-5.8 Z0.2 E12.68329 F3600
G1 X25.908 Y25.842 Z0.2 E12.65668 F3600
G1 X-5.8 Y25.842 Z0.2 E12.68329 F3600
G1 X-5.8 Y-5.8 Z0.2 E12.65668 F3600
G1 X-5.4 Y-5.4 Z0.2 F3600
G1 X25.508 Y-5.4 Z0.2 E12.36328 F3600
G1 X25.508 Y25.442 Z0.2 E12.33667 F3600
G1 X-5.4 Y25.442 Z0.2 E12.36328 F3600
G1 X-5.4 Y-5.4 Z0.2 E12.33667 F3600
; path-optimization layer 0 regions=1 entities=2
G1 X-5 Y-5 Z0.2 F3600
G1 X25.108 Y-5 Z0.2 E12.04327 F3600
G1 X25.108 Y25.042 Z0.2 E12.01666 F3600
G1 X-5 Y25.042 Z0.2 E12.04327 F3600
G1 X-5 Y-5 Z0.2 E12.01666 F3600
G1 X-4.6 Y-4.6 Z0.2 F3600
G1 X24.708 Y-4.6 Z0.2 E11.72333 F3600
G1 X24.708 Y24.642 Z0.2 E11.69672 F3600
G1 X-4.6 Y24.642 Z0.2 E11.72333 F3600
G1 X-4.6 Y-4.6 Z0.2 E11.69672 F3600
G1 X-4.2 Y-4.2 Z0.2 F3600
G1 X24.308 Y-4.2 Z0.2 E11.40332 F3600
G1 X24.308 Y24.242 Z0.2 E11.37671 F3600
G1 X-4.2 Y24.242 Z0.2 E11.40332 F3600
G1 X-4.2 Y-4.2 Z0.2 E11.37671 F3600
G1 X-3.8 Y-3.8 Z0.2 F3600
G1 X23.908 Y-3.8 Z0.2 E11.08331 F3600
G1 X23.908 Y23.842 Z0.2 E11.05670 F3600
G1 X-3.8 Y23.842 Z0.2 E11.08331 F3600
G1 X-3.8 Y-3.8 Z0.2 E11.05670 F3600
G1 X-3.4 Y-3.4 Z0.2 F3600
G1 X23.508 Y-3.4 Z0.2 E10.76331 F3600
G1 X23.508 Y23.442 Z0.2 E10.73669 F3600
G1 X-3.4 Y23.442 Z0.2 E10.76331 F3600
G1 X-3.4 Y-3.4 Z0.2 E10.73669 F3600
G1 X-3 Y-3 Z0.2 F3600
G1 X23.108 Y-3 Z0.2 E10.44330 F3600
G1 X23.108 Y23.042 Z0.2 E10.41669 F3600
G1 X-3 Y23.042 Z0.2 E10.44330 F3600
G1 X-3 Y-3 Z0.2 E10.41669 F3600
G1 X-2.6 Y-2.6 Z0.2 F3600
G1 X22.708 Y-2.6 Z0.2 E10.12329 F3600
G1 X22.708 Y22.642 Z0.2 E10.09668 F3600
G1 X-2.6 Y22.642 Z0.2 E10.12329 F3600
G1 X-2.6 Y-2.6 Z0.2 E10.09668 F3600
G1 X-2.2 Y-2.2 Z0.2 F3600
G1 X22.308 Y-2.2 Z0.2 E9.80328 F3600
G1 X22.308 Y22.242 Z0.2 E9.77667 F3600
G1 X-2.2 Y22.242 Z0.2 E9.80328 F3600
G1 X-2.2 Y-2.2 Z0.2 E9.77667 F3600
G1 X-1.8 Y-1.8 Z0.2 F3600
G1 X21.908 Y-1.8 Z0.2 E9.48328 F3600
G1 X21.908 Y21.842 Z0.2 E9.45667 F3600
G1 X-1.8 Y21.842 Z0.2 E9.48328 F3600
G1 X-1.8 Y-1.8 Z0.2 E9.45673 F3600
G1 X-1.4 Y-1.4 Z0.2 F3600
G1 X21.508 Y-1.4 Z0.2 E9.16333 F3600
G1 X21.508 Y21.442 Z0.2 E9.13672 F3600
G1 X-1.4 Y21.442 Z0.2 E9.16333 F3600
G1 X-1.4 Y-1.4 Z0.2 E9.13672 F3600
G1 X-1 Y-1 Z0.2 F3600
G1 X21.108 Y-1 Z0.2 E8.84326 F3600
G1 X21.108 Y21.042 Z0.2 E8.81665 F3600
G1 X-1 Y21.042 Z0.2 E8.84326 F3600
G1 X-1 Y-1 Z0.2 E8.81665 F3600
G1 X-0.6 Y-0.6 Z0.2 F3600
G1 X20.708 Y-0.6 Z0.2 E8.52332 F3600
G1 X20.708 Y20.642 Z0.2 E8.49670 F3600
G1 X-0.6 Y20.642 Z0.2 E8.52332 F3600
G1 X-0.6 Y-0.6 Z0.2 E8.49670 F3600
G1 X-0.2 Y-0.2 Z0.2 F3600
G1 X20.308 Y-0.2 Z0.2 E8.20325 F3600
G1 X20.308 Y20.242 Z0.2 E8.17664 F3600
G1 X-0.2 Y20.242 Z0.2 E8.20325 F3600
G1 X-0.2 Y-0.2 Z0.2 E8.17664 F3600
;TYPE:Outer wall
G1 X19.8 Y0.2 Z0.2 F3600
G1 X19.8 Y19.8 Z0.2 E15.68005 F3600
G1 X0.2 Y19.8 Z0.2 E15.68005 F3600
G1 X0.2 Y0.2 Z0.2 E15.68005 F3600
;TYPE:Inner wall
G1 X19.4 Y0.6 Z0.2 F3600
G1 X19.4 Y19.4 Z0.2 E15.04004 F3600
G1 X0.6 Y19.4 Z0.2 E15.04004 F3600
G1 X0.6 Y0.6 Z0.2 E15.04004 F3600
;TYPE:Bottom surface
G1 X0.471 Y0.75 Z0.2 F6000
G1 X0.498 Y1.633 Z0.2 E0.35352 F6000
G1 X0.772 Y2.27 Z0.2 E0.27722 F6000
G1 X1.243 Y2.709 Z0.2 E0.25769 F6000
G1 X1.576 Y2.832 Z0.2 E0.14185 F6000
G1 X2 Y2.862 Z0.2 E0.17029 F6000
G1 X2.884 Y2.89 Z0.2 E0.35352 F6000
G1 X3.521 Y3.163 Z0.2 E0.27722 F6000
G1 X3.96 Y3.634 Z0.2 E0.25769 F6000
G1 X4.082 Y3.967 Z0.2 E0.14185 F6000
G1 X4.113 Y4.392 Z0.2 E0.17029 F6000
G1 X4.14 Y5.275 Z0.2 E0.35352 F6000
G1 X4.414 Y5.912 Z0.2 E0.27722 F6000
G1 X4.885 Y6.351 Z0.2 E0.25769 F6000
G1 X5.218 Y6.473 Z0.2 E0.14185 F6000
G1 X5.642 Y6.504 Z0.2 E0.17029 F6000
G1 X6.525 Y6.531 Z0.2 E0.35352 F6000
G1 X7.162 Y6.805 Z0.2 E0.27722 F6000
G1 X7.601 Y7.276 Z0.2 E0.25769 F6000
G1 X7.724 Y7.609 Z0.2 E0.14185 F6000
G1 X7.755 Y8.033 Z0.2 E0.17029 F6000
G1 X7.782 Y8.917 Z0.2 E0.35352 F6000
G1 X8.055 Y9.553 Z0.2 E0.27722 F6000
G1 X8.527 Y9.993 Z0.2 E0.25769 F6000
G1 X8.859 Y10.115 Z0.2 E0.14185 F6000
G1 X9.284 Y10.146 Z0.2 E0.17029 F6000
G1 X10.167 Y10.173 Z0.2 E0.35352 F6000
G1 X10.804 Y10.447 Z0.2 E0.27722 F6000
G1 X11.243 Y10.918 Z0.2 E0.25769 F6000
G1 X11.366 Y11.251 Z0.2 E0.14185 F6000
G1 X11.396 Y11.675 Z0.2 E0.17029 F6000
G1 X11.423 Y12.558 Z0.2 E0.35352 F6000
G1 X11.697 Y13.195 Z0.2 E0.27722 F6000
G1 X12.168 Y13.634 Z0.2 E0.25769 F6000
G1 X12.501 Y13.757 Z0.2 E0.14185 F6000
G1 X12.926 Y13.788 Z0.2 E0.17029 F6000
G1 X13.809 Y13.815 Z0.2 E0.35352 F6000
G1 X14.446 Y14.088 Z0.2 E0.27722 F6000
G1 X14.885 Y14.56 Z0.2 E0.25769 F6000
G1 X15.007 Y14.892 Z0.2 E0.14185 F6000
G1 X15.038 Y15.317 Z0.2 E0.17029 F6000
G1 X15.065 Y16.2 Z0.2 E0.35352 F6000
G1 X15.339 Y16.837 Z0.2 E0.27722 F6000
G1 X15.81 Y17.276 Z0.2 E0.25769 F6000
G1 X16.143 Y17.399 Z0.2 E0.14185 F6000
G1 X16.567 Y17.429 Z0.2 E0.17029 F6000
G1 X17.451 Y17.456 Z0.2 E0.35352 F6000
G1 X18.087 Y17.73 Z0.2 E0.27722 F6000
G1 X18.526 Y18.201 Z0.2 E0.25769 F6000
G1 X18.649 Y18.534 Z0.2 E0.14185 F6000
G1 X18.68 Y18.958 Z0.2 E0.17029 F6000
G1 X18.707 Y19.842 Z0.2 E0.35352 F6000
G1 X0.471 Y18.958 Z0.2 F6000
G1 X0.896 Y18.989 Z0.2 E0.17029 F6000
G1 X1.228 Y19.112 Z0.2 E0.14185 F6000
G1 X1.7 Y19.551 Z0.2 E0.25769 F6000
G1 X0.318 Y14.56 Z0.2 F6000
G1 X0.44 Y14.892 Z0.2 E0.14185 F6000
G1 X0.471 Y15.317 Z0.2 E0.17029 F6000
G1 X0.498 Y16.2 Z0.2 E0.35352 F6000
G1 X0.772 Y16.837 Z0.2 E0.27722 F6000
G1 X1.243 Y17.276 Z0.2 E0.25769 F6000
G1 X1.576 Y17.399 Z0.2 E0.14185 F6000
G1 X2 Y17.429 Z0.2 E0.17029 F6000
G1 X2.884 Y17.456 Z0.2 E0.35352 F6000
G1 X3.521 Y17.73 Z0.2 E0.27722 F6000
G1 X3.96 Y18.201 Z0.2 E0.25769 F6000
G1 X4.082 Y18.534 Z0.2 E0.14185 F6000
G1 X4.113 Y18.958 Z0.2 E0.17029 F6000
G1 X4.14 Y19.842 Z0.2 E0.35352 F6000
G1 X0.471 Y11.675 Z0.2 F6000
G1 X0.896 Y11.706 Z0.2 E0.17029 F6000
G1 X1.228 Y11.828 Z0.2 E0.14185 F6000
G1 X1.7 Y12.267 Z0.2 E0.25769 F6000
G1 X1.973 Y12.904 Z0.2 E0.27722 F6000
G1 X2 Y13.788 Z0.2 E0.35352 F6000
G1 X2.031 Y14.212 Z0.2 E0.17029 F6000
G1 X2.154 Y14.545 Z0.2 E0.14185 F6000
G1 X2.593 Y15.016 Z0.2 E0.25769 F6000
G1 X3.23 Y15.29 Z0.2 E0.27722 F6000
G1 X4.113 Y15.317 Z0.2 E0.35352 F6000
G1 X4.537 Y15.347 Z0.2 E0.17029 F6000
G1 X4.87 Y15.47 Z0.2 E0.14185 F6000
G1 X5.341 Y15.909 Z0.2 E0.25769 F6000
G1 X5.615 Y16.546 Z0.2 E0.27722 F6000
G1 X5.642 Y17.429 Z0.2 E0.35352 F6000
G1 X5.673 Y17.854 Z0.2 E0.17029 F6000
G1 X5.795 Y18.186 Z0.2 E0.14185 F6000
G1 X6.234 Y18.658 Z0.2 E0.25769 F6000
G1 X6.871 Y18.931 Z0.2 E0.27722 F6000
G1 X7.755 Y18.958 Z0.2 E0.35352 F6000
G1 X8.179 Y18.989 Z0.2 E0.17029 F6000
G1 X8.512 Y19.112 Z0.2 E0.14185 F6000
G1 X8.983 Y19.551 Z0.2 E0.25769 F6000
G1 X0.318 Y7.276 Z0.2 F6000
G1 X0.44 Y7.609 Z0.2 E0.14185 F6000
G1 X0.471 Y8.033 Z0.2 E0.17029 F6000
G1 X0.498 Y8.917 Z0.2 E0.35352 F6000
G1 X0.772 Y9.553 Z0.2 E0.27722 F6000
G1 X1.243 Y9.993 Z0.2 E0.25769 F6000
G1 X1.576 Y10.115 Z0.2 E0.14185 F6000
G1 X2 Y10.146 Z0.2 E0.17029 F6000
G1 X2.884 Y10.173 Z0.2 E0.35352 F6000
G1 X3.521 Y10.447 Z0.2 E0.27722 F6000
G1 X3.96 Y10.918 Z0.2 E0.25769 F6000
G1 X4.082 Y11.251 Z0.2 E0.14185 F6000
G1 X4.113 Y11.675 Z0.2 E0.17029 F6000
G1 X4.14 Y12.558 Z0.2 E0.35352 F6000
G1 X4.414 Y13.195 Z0.2 E0.27722 F6000
G1 X4.885 Y13.634 Z0.2 E0.25769 F6000
G1 X5.218 Y13.757 Z0.2 E0.14185 F6000
G1 X5.642 Y13.788 Z0.2 E0.17029 F6000
G1 X6.525 Y13.815 Z0.2 E0.35352 F6000
G1 X7.162 Y14.088 Z0.2 E0.27722 F6000
G1 X7.601 Y14.56 Z0.2 E0.25769 F6000
G1 X7.724 Y14.892 Z0.2 E0.14185 F6000
G1 X7.755 Y15.317 Z0.2 E0.17029 F6000
G1 X7.782 Y16.2 Z0.2 E0.35352 F6000
G1 X8.055 Y16.837 Z0.2 E0.27722 F6000
G1 X8.527 Y17.276 Z0.2 E0.25769 F6000
G1 X8.859 Y17.399 Z0.2 E0.14185 F6000
G1 X9.284 Y17.429 Z0.2 E0.17029 F6000
G1 X10.167 Y17.456 Z0.2 E0.35352 F6000
G1 X10.804 Y17.73 Z0.2 E0.27722 F6000
G1 X11.243 Y18.201 Z0.2 E0.25769 F6000
G1 X11.366 Y18.534 Z0.2 E0.14185 F6000
G1 X11.396 Y18.958 Z0.2 E0.17029 F6000
G1 X11.423 Y19.842 Z0.2 E0.35352 F6000
G1 X0.471 Y4.392 Z0.2 F6000
G1 X0.896 Y4.422 Z0.2 E0.17029 F6000
G1 X1.228 Y4.545 Z0.2 E0.14185 F6000
G1 X1.7 Y4.984 Z0.2 E0.25769 F6000
G1 X1.973 Y5.621 Z0.2 E0.27722 F6000
G1 X2 Y6.504 Z0.2 E0.35352 F6000
G1 X2.031 Y6.929 Z0.2 E0.17029 F6000
G1 X2.154 Y7.261 Z0.2 E0.14185 F6000
G1 X2.593 Y7.733 Z0.2 E0.25769 F6000
G1 X3.23 Y8.006 Z0.2 E0.27722 F6000
G1 X4.113 Y8.033 Z0.2 E0.35352 F6000
G1 X4.537 Y8.064 Z0.2 E0.17029 F6000
G1 X4.87 Y8.187 Z0.2 E0.14185 F6000
G1 X5.341 Y8.626 Z0.2 E0.25769 F6000
G1 X5.615 Y9.263 Z0.2 E0.27722 F6000
G1 X5.642 Y10.146 Z0.2 E0.35352 F6000
G1 X5.673 Y10.57 Z0.2 E0.17029 F6000
G1 X5.795 Y10.903 Z0.2 E0.14185 F6000
G1 X6.234 Y11.374 Z0.2 E0.25769 F6000
G1 X6.871 Y11.648 Z0.2 E0.27722 F6000
G1 X7.755 Y11.675 Z0.2 E0.35352 F6000
G1 X8.179 Y11.706 Z0.2 E0.17029 F6000
G1 X8.512 Y11.828 Z0.2 E0.14185 F6000
G1 X8.983 Y12.267 Z0.2 E0.25769 F6000
G1 X9.257 Y12.904 Z0.2 E0.27722 F6000
G1 X9.284 Y13.788 Z0.2 E0.35352 F6000
G1 X9.315 Y14.212 Z0.2 E0.17029 F6000
G1 X9.437 Y14.545 Z0.2 E0.14185 F6000
G1 X9.876 Y15.016 Z0.2 E0.25769 F6000
G1 X10.513 Y15.29 Z0.2 E0.27722 F6000
G1 X11.396 Y15.317 Z0.2 E0.35352 F6000
G1 X11.821 Y15.347 Z0.2 E0.17029 F6000
G1 X12.153 Y15.47 Z0.2 E0.14185 F6000
G1 X12.625 Y15.909 Z0.2 E0.25769 F6000
G1 X12.898 Y16.546 Z0.2 E0.27722 F6000
G1 X12.926 Y17.429 Z0.2 E0.35352 F6000
G1 X12.956 Y17.854 Z0.2 E0.17029 F6000
G1 X13.079 Y18.186 Z0.2 E0.14185 F6000
G1 X13.518 Y18.658 Z0.2 E0.25769 F6000
G1 X14.155 Y18.931 Z0.2 E0.27722 F6000
G1 X15.038 Y18.958 Z0.2 E0.35352 F6000
G1 X15.463 Y18.989 Z0.2 E0.17029 F6000
G1 X15.795 Y19.112 Z0.2 E0.14185 F6000
G1 X16.267 Y19.551 Z0.2 E0.25769 F6000
G1 X17.16 Y0.449 Z0.2 F6000
G1 X17.796 Y0.723 Z0.2 E0.27722 F6000
G1 X18.68 Y0.75 Z0.2 E0.35352 F6000
G1 X19.104 Y0.781 Z0.2 E0.17029 F6000
G1 X19.437 Y0.903 Z0.2 E0.14185 F6000
G1 X19.908 Y1.342 Z0.2 E0.25769 F6000
G1 X2.593 Y0.449 Z0.2 F6000
G1 X3.23 Y0.723 Z0.2 E0.27722 F6000
G1 X4.113 Y0.75 Z0.2 E0.35352 F6000
G1 X4.537 Y0.781 Z0.2 E0.17029 F6000
G1 X4.87 Y0.903 Z0.2 E0.14185 F6000
G1 X5.341 Y1.342 Z0.2 E0.25769 F6000
G1 X5.615 Y1.979 Z0.2 E0.27722 F6000
G1 X5.642 Y2.862 Z0.2 E0.35352 F6000
G1 X5.673 Y3.287 Z0.2 E0.17029 F6000
G1 X5.795 Y3.62 Z0.2 E0.14185 F6000
G1 X6.234 Y4.091 Z0.2 E0.25769 F6000
G1 X6.871 Y4.364 Z0.2 E0.27722 F6000
G1 X7.755 Y4.392 Z0.2 E0.35352 F6000
G1 X8.179 Y4.422 Z0.2 E0.17029 F6000
G1 X8.512 Y4.545 Z0.2 E0.14185 F6000
G1 X8.983 Y4.984 Z0.2 E0.25769 F6000
G1 X9.257 Y5.621 Z0.2 E0.27722 F6000
G1 X9.284 Y6.504 Z0.2 E0.35352 F6000
G1 X9.315 Y6.929 Z0.2 E0.17029 F6000
G1 X9.437 Y7.261 Z0.2 E0.14185 F6000
G1 X9.876 Y7.733 Z0.2 E0.25769 F6000
G1 X10.513 Y8.006 Z0.2 E0.27722 F6000
G1 X11.396 Y8.033 Z0.2 E0.35352 F6000
G1 X11.821 Y8.064 Z0.2 E0.17029 F6000
G1 X12.153 Y8.187 Z0.2 E0.14185 F6000
G1 X12.625 Y8.626 Z0.2 E0.25769 F6000
G1 X12.898 Y9.263 Z0.2 E0.27722 F6000
G1 X12.926 Y10.146 Z0.2 E0.35352 F6000
G1 X12.956 Y10.57 Z0.2 E0.17029 F6000
G1 X13.079 Y10.903 Z0.2 E0.14185 F6000
G1 X13.518 Y11.374 Z0.2 E0.25769 F6000
G1 X14.155 Y11.648 Z0.2 E0.27722 F6000
G1 X15.038 Y11.675 Z0.2 E0.35352 F6000
G1 X15.463 Y11.706 Z0.2 E0.17029 F6000
G1 X15.795 Y11.828 Z0.2 E0.14185 F6000
G1 X16.267 Y12.267 Z0.2 E0.25769 F6000
G1 X16.54 Y12.904 Z0.2 E0.27722 F6000
G1 X16.567 Y13.788 Z0.2 E0.35352 F6000
G1 X16.598 Y14.212 Z0.2 E0.17029 F6000
G1 X16.721 Y14.545 Z0.2 E0.14185 F6000
G1 X17.16 Y15.016 Z0.2 E0.25769 F6000
G1 X17.796 Y15.29 Z0.2 E0.27722 F6000
G1 X18.68 Y15.317 Z0.2 E0.35352 F6000
G1 X19.104 Y15.347 Z0.2 E0.17029 F6000
G1 X19.437 Y15.47 Z0.2 E0.14185 F6000
G1 X19.908 Y15.909 Z0.2 E0.25769 F6000
G1 X7.724 Y0.325 Z0.2 F6000
G1 X7.755 Y0.75 Z0.2 E0.17029 F6000
G1 X7.782 Y1.633 Z0.2 E0.35352 F6000
G1 X8.055 Y2.27 Z0.2 E0.27722 F6000
G1 X8.527 Y2.709 Z0.2 E0.25769 F6000
G1 X8.859 Y2.832 Z0.2 E0.14185 F6000
G1 X9.284 Y2.862 Z0.2 E0.17029 F6000
G1 X10.167 Y2.89 Z0.2 E0.35352 F6000
G1 X10.804 Y3.163 Z0.2 E0.27722 F6000
G1 X11.243 Y3.634 Z0.2 E0.25769 F6000
G1 X11.366 Y3.967 Z0.2 E0.14185 F6000
G1 X11.396 Y4.392 Z0.2 E0.17029 F6000
G1 X11.423 Y5.275 Z0.2 E0.35352 F6000
G1 X11.697 Y5.912 Z0.2 E0.27722 F6000
G1 X12.168 Y6.351 Z0.2 E0.25769 F6000
G1 X12.501 Y6.473 Z0.2 E0.14185 F6000
G1 X12.926 Y6.504 Z0.2 E0.17029 F6000
G1 X13.809 Y6.531 Z0.2 E0.35352 F6000
G1 X14.446 Y6.805 Z0.2 E0.27722 F6000
G1 X14.885 Y7.276 Z0.2 E0.25769 F6000
G1 X15.007 Y7.609 Z0.2 E0.14185 F6000
G1 X15.038 Y8.033 Z0.2 E0.17029 F6000
G1 X15.065 Y8.917 Z0.2 E0.35352 F6000
G1 X15.339 Y9.553 Z0.2 E0.27722 F6000
G1 X15.81 Y9.993 Z0.2 E0.25769 F6000
G1 X16.143 Y10.115 Z0.2 E0.14185 F6000
G1 X16.567 Y10.146 Z0.2 E0.17029 F6000
G1 X17.451 Y10.173 Z0.2 E0.35352 F6000
G1 X18.087 Y10.447 Z0.2 E0.27722 F6000
G1 X18.526 Y10.918 Z0.2 E0.25769 F6000
G1 X18.649 Y11.251 Z0.2 E0.14185 F6000
G1 X18.68 Y11.675 Z0.2 E0.17029 F6000
G1 X18.707 Y12.558 Z0.2 E0.35352 F6000
G1 X18.98 Y13.195 Z0.2 E0.27722 F6000
G1 X19.452 Y13.634 Z0.2 E0.25769 F6000
G1 X19.784 Y13.757 Z0.2 E0.14185 F6000
G1 X15.007 Y0.325 Z0.2 F6000
G1 X15.038 Y0.75 Z0.2 E0.17029 F6000
G1 X15.065 Y1.633 Z0.2 E0.35352 F6000
G1 X15.339 Y2.27 Z0.2 E0.27722 F6000
G1 X15.81 Y2.709 Z0.2 E0.25769 F6000
G1 X16.143 Y2.832 Z0.2 E0.14185 F6000
G1 X16.567 Y2.862 Z0.2 E0.17029 F6000
G1 X17.451 Y2.89 Z0.2 E0.35352 F6000
G1 X18.087 Y3.163 Z0.2 E0.27722 F6000
G1 X18.526 Y3.634 Z0.2 E0.25769 F6000
G1 X18.649 Y3.967 Z0.2 E0.14185 F6000
G1 X18.68 Y4.392 Z0.2 E0.17029 F6000
G1 X18.707 Y5.275 Z0.2 E0.35352 F6000
G1 X18.98 Y5.912 Z0.2 E0.27722 F6000
G1 X19.452 Y6.351 Z0.2 E0.25769 F6000
G1 X19.784 Y6.473 Z0.2 E0.14185 F6000
G1 X9.876 Y0.449 Z0.2 F6000
G1 X10.513 Y0.723 Z0.2 E0.27722 F6000
G1 X11.396 Y0.75 Z0.2 E0.35352 F6000
G1 X11.821 Y0.781 Z0.2 E0.17029 F6000
G1 X12.153 Y0.903 Z0.2 E0.14185 F6000
G1 X12.625 Y1.342 Z0.2 E0.25769 F6000
G1 X12.898 Y1.979 Z0.2 E0.27722 F6000
G1 X12.926 Y2.862 Z0.2 E0.35352 F6000
G1 X12.956 Y3.287 Z0.2 E0.17029 F6000
G1 X13.079 Y3.62 Z0.2 E0.14185 F6000
G1 X13.518 Y4.091 Z0.2 E0.25769 F6000
